; Post-layer lift
G1 X28.01 Y-29.07 Z3 E0 F210
; END_LAYER_OBJECT z=2.75
; BEGIN_LAYER_OBJECT z=3.00
;
; 'Perimeter Path', 0.5 [feed mm/s], 14.9 [head mm/s]
G1 X15.54 Y33.69 Z3 E0 F15000
G1 E1.25 F900
G1 X15.46 Y34.51 E0.029 F897
G1 X13.98 Y35.83 E0.0703
G1 X12.87 Y36.63 E0.0483
G1 X11.63 Y37.38 E0.0512
G1 X9.41 Y38.48 E0.0879
G1 X6.99 Y39.31 E0.0901
G1 X5.17 Y39.77 E0.0667
G1 X3.38 Y40.06 E0.0639
G1 X1.2 Y40.27 E0.0776
G1 X-1.02 Y40.26 E0.0784
G1 X-3.48 Y40.07 E0.0872
G1 X-5.83 Y39.63 E0.0845
G1 X-8.01 Y38.99 E0.0804
G1 X-9.42 Y38.46 E0.0533
G1 X-11.67 Y37.36 E0.0885
G1 X-12.98 Y36.55 E0.0544
G1 X-14.77 Y35.17 E0.0802
G1 X-15.75 Y34.24 E0.0478
G1 X-16.52 Y33.36 E0.0411
G1 X-17.2 Y32.47 E0.0398
G1 X-18.23 Y30.66 E0.0735
G1 X-18.65 Y29.66 E0.0383
G1 X-19.14 Y27.85 E0.0666
G1 X-19.28 Y26.74 E0.0393
G1 X-19.32 Y23.57 E0.1122
G1 X-19.41 Y23.14 E0.0155
G1 X-19.57 Y22.98 E0.0083
G1 X-19.83 Y22.84 E0.0101
G1 X-19.83 Y21.53 E0.0466
G1 X-19.77 Y21.43 E0.0041
G1 X-19.51 Y21.27 E0.0107
G1 X-19.32 Y20.79 E0.0182
G1 X-19.33 Y-5.8 E0.9403
G1 X-19.38 Y-6.28 E0.0173
G1 X-21.56 Y-10.52 E0.1685
G1 X-23 Y-13.51 E0.1176
G1 X-24.32 Y-16.56 E0.1174
G1 X-26.28 Y-21.59 E0.1909
G1 X-28.14 Y-26.86 E0.1979
G1 X-28.26 Y-27.06 E0.0081
G1 X-28.49 Y-27.2 E0.0093
G1 X-28.68 Y-27.71 E0.0192
G1 X-29.14 Y-28.51 E0.0329
G1 X-29.42 Y-29.45 E0.0346
G1 X-29.53 Y-30.42 E0.0346
G1 X-29.49 Y-31.35 E0.0329
G1 X-29.31 Y-32.15 E0.029
G1 X-28.98 Y-32.88 E0.0282
G1 X-28.61 Y-33.37 E0.0218
G1 X-28.3 Y-33.62 E0.014
G1 X-28.02 Y-33.71 E0.0102
G1 X-27.72 Y-33.66 E0.0108
G1 X-27.33 Y-33.36 E0.0176
G1 X-26.94 Y-32.86 E0.0225
G1 X-26.57 Y-32.13 E0.0289
G1 X-26.5 Y-31.52 E0.0216
G1 X-26.67 Y-30.64 E0.0318
G1 X-26.59 Y-30.36 E0.0102
G1 X-26.29 Y-30.09 E0.0144
G1 X-26.23 Y-29.83 E0.0095
G1 X-26.32 Y-29.37 E0.0163
G1 X-26.58 Y-28.78 E0.023
G1 X-27.02 Y-28.15 E0.027
G1 X-27.64 Y-27.51 E0.0317
G1 X-27.74 Y-27.05 E0.0166
G1 X-24.93 Y-19.41 E0.2878
G1 X-23.91 Y-16.86 E0.0971
G1 X-22.58 Y-13.78 E0.1188
G1 X-20.38 Y-9.23 E0.1786
G1 X-20.19 Y-9.04 E0.0095
G1 X-19.91 Y-8.97 E0.0102
G1 X-19.59 Y-9.08 E0.0122
G1 X-19.4 Y-9.27 E0.0096
G1 X-19.34 Y-9.52 E0.0088
G1 X-19.33 Y-23.92 E0.5093
G1 X-19.28 Y-24.59 E0.024
G1 X-18.96 Y-25.4 E0.0306
G1 X-18.56 Y-25.96 E0.0245
G1 X-17.46 Y-26.99 E0.0531
G1 X-16.72 Y-27.49 E0.0316
G1 X-14.86 Y-28.46 E0.0744
G1 X-13.71 Y-28.91 E0.0434
G1 X-11.29 Y-29.68 E0.0901
G1 X-10.69 Y-29.95 E0.0231
G1 X-10.18 Y-30.39 E0.0239
G1 X-9.81 Y-31.06 E0.0268
G1 X-9.25 Y-34.17 E0.1118
G1 X-8.53 Y-37.24 E0.1116
G1 X-8.53 Y-37.5 E0.0093
G1 X-8.75 Y-37.79 E0.0128
G1 X-9.36 Y-38.17 E0.0255
G1 X-9.96 Y-38.73 E0.0292
G1 X-10.35 Y-39.39 E0.0267
G1 X-10.51 Y-39.94 E0.0203
G1 X-10.53 Y-40.15 E0.0078
G1 X-10.4 Y-40.21 E0.0049
G1 X-4.12 Y-40.21 E0.2223
G1 X-4.04 Y-40.07 E0.0054
G1 X-4.21 Y-39.44 E0.0232
G1 X-4.4 Y-39.03 E0.0159
G1 X-4.73 Y-38.59 E0.0195
G1 X-4.79 Y-38.26 E0.0117
G1 X-3.88 Y-34.85 E0.1249
G1 X-3.47 Y-32.67 E0.0786
G1 X-3.19 Y-31.93 E0.0276
G1 X-2.72 Y-31.45 E0.024
G1 X-2.13 Y-31.13 E0.0239
G1 X-1.25 Y-30.99 E0.0312
G1 X1.2 Y-30.99 E0.0867
G1 X1.77 Y-31.04 E0.0202
G1 X2.33 Y-31.22 E0.0207
G1 X2.86 Y-31.57 E0.0225
G1 X3.25 Y-32.05 E0.022
G1 X3.44 Y-32.56 E0.0193
G1 X3.91 Y-35 E0.088
G1 X4.32 Y-36.6 E0.0583
G1 X4.76 Y-38.09 E0.0551
G1 X4.75 Y-38.51 E0.0146
G1 X4.28 Y-39.27 E0.0317
G1 X4.1 Y-39.79 E0.0197
G1 X4.04 Y-40.21 E0.0147
G1 X10.43 Y-40.21 E0.2263
G1 X10.54 Y-40.12 E0.0049
G1 X10.4 Y-39.55 E0.0205
G1 X10.17 Y-39.04 E0.0199
G1 X9.75 Y-38.51 E0.0239
G1 X9.33 Y-38.15 E0.0195
G1 X8.68 Y-37.76 E0.0269
G1 X8.53 Y-37.51 E0.0104
G1 X8.56 Y-37.05 E0.016
G1 X9.21 Y-34.44 E0.0952
G1 X9.76 Y-31.32 E0.1122
G1 X9.98 Y-30.68 E0.0238
G1 X10.39 Y-30.18 E0.0228
G1 X10.9 Y-29.83 E0.0219
G1 X11.4 Y-29.64 E0.0188
G1 X13.79 Y-28.9 E0.0887
G1 X15.79 Y-28.01 E0.0775
G1 X16.8 Y-27.43 E0.0412
G1 X18.01 Y-26.52 E0.0535
G1 X18.54 Y-25.98 E0.0267
G1 X18.91 Y-25.47 E0.0222
G1 X19.27 Y-24.63 E0.0326
G1 X19.33 Y-23.98 E0.0229
G1 X19.33 Y-9.66 E0.5065
G1 X19.39 Y-9.32 E0.0122
G1 X19.6 Y-9.06 E0.0121
G1 X19.93 Y-8.98 E0.0119
G1 X20.2 Y-9.05 E0.0098
G1 X20.37 Y-9.23 E0.0086
G1 X22.56 Y-13.74 E0.1773
G1 X23.87 Y-16.77 E0.1171
G1 X25.82 Y-21.78 E0.1899
G1 X27.72 Y-26.99 E0.1962
G1 X27.73 Y-27.3 E0.011
G1 X27.52 Y-27.64 E0.0139
G1 X26.85 Y-28.38 E0.0355
G1 X26.55 Y-28.85 E0.0196
G1 X26.31 Y-29.42 E0.022
G1 X26.23 Y-29.79 E0.0136
G1 X26.27 Y-30.07 E0.0098
G1 X26.56 Y-30.34 E0.0141
G1 X26.64 Y-30.66 E0.0117
G1 X26.5 Y-31.48 E0.0294
G1 X26.55 Y-32.09 E0.0217
G1 X26.96 Y-32.91 E0.0322
G1 X27.36 Y-33.4 E0.0225
G1 X27.68 Y-33.64 E0.0143
G1 X28.05 Y-33.71 E0.0132
G1 X28.44 Y-33.53 E0.0152
G1 X28.91 Y-32.99 E0.0253
G1 X29.26 Y-32.27 E0.0282
G1 X29.45 Y-31.58 E0.0255
G1 X29.52 Y-30.77 E0.0286
G1 X29.48 Y-29.78 E0.0353
G1 X29.25 Y-28.82 E0.0349
G1 X29.02 Y-28.27 E0.021
G1 X28.62 Y-27.6 E0.0274
G1 X28.49 Y-27.21 E0.0147
G1 X28.15 Y-26.9 E0.0161
G1 X26.16 Y-21.26 E0.2115
G1 X24.33 Y-16.59 E0.1774
G1 X23.04 Y-13.61 E0.115
G1 X21.06 Y-9.51 E0.161
G1 X19.46 Y-6.46 E0.1217
G1 X19.35 Y-6.14 E0.012
G1 X19.33 Y-5.71 E0.0153
G1 X19.32 Y20.75 E0.9357
G1 X19.37 Y21.08 E0.012
G1 X19.57 Y21.3 E0.0103
G1 X19.79 Y21.42 E0.0089
G1 X19.82 Y21.56 E0.0049
G1 X19.82 Y22.84 E0.0452
G1 X19.51 Y23.05 E0.0134
G1 X19.38 Y23.28 E0.0092
G1 X19.32 Y23.55 E0.01
G1 X19.29 Y26.73 E0.1125
G1 X19.16 Y27.78 E0.0373
G1 X18.68 Y29.59 E0.0662
G1 X18.29 Y30.57 E0.0374
G1 X17.79 Y31.52 E0.0379
G1 X17.18 Y32.49 E0.0407
G1 X16.01 Y33.94 E0.066
G1 X15.19 Y34.05 E0.029
;
; 'Loop Path', 1.3 [feed mm/s], 37.4 [head mm/s]
G1 X14.75 Y33.81 E0 F15000
G1 X13.35 Y35.04 E0.0658 F2241.8
G1 X12.33 Y35.79 E0.0449
G1 X10.19 Y37.01 E0.0872
G1 X8.96 Y37.56 E0.0474
G1 X6.74 Y38.36 E0.0836
G1 X4.43 Y38.9 E0.0838
G1 X2.07 Y39.21 E0.0841
G1 X-0.12 Y39.29 E0.0777
G1 X-2.08 Y39.2 E0.0692
G1 X-4.48 Y38.89 E0.0859
G1 X-6.74 Y38.36 E0.0818
G1 X-8.91 Y37.59 E0.0815
G1 X-10.13 Y37.04 E0.0472
G1 X-12.26 Y35.83 E0.0869
G1 X-13.3 Y35.09 E0.045
G1 X-14.17 Y34.38 E0.0398
G1 X-15.72 Y32.75 E0.0796
G1 X-16.4 Y31.84 E0.0402
G1 X-17.31 Y30.26 E0.0643
G1 X-17.73 Y29.26 E0.0384
G1 X-18.15 Y27.77 E0.0547
G1 X-18.29 Y26.62 E0.0409
G1 X-18.32 Y23.53 E0.1093
G1 X-18.41 Y22.94 E0.0214
G1 X-18.57 Y22.61 E0.0128
G1 X-18.81 Y22.31 E0.0136
G1 X-18.83 Y22.01 E0.0105
G1 X-18.44 Y21.45 E0.0242
G1 X-18.32 Y20.76 E0.0245
G1 X-18.33 Y-5.91 E0.9432
G1 X-18.44 Y-6.66 E0.0271
G1 X-19.1 Y-7.92 E0.0502
G1 X-19.19 Y-8.15 E0.0088
G1 X-18.76 Y-8.46 E0.0187
G1 X-18.45 Y-8.92 E0.0195
G1 X-18.33 Y-9.7 E0.028
G1 X-18.33 Y-23.97 E0.5046
G1 X-18.25 Y-24.58 E0.0217
G1 X-17.87 Y-25.23 E0.0268
G1 X-17.32 Y-25.8 E0.0278
G1 X-16.21 Y-26.63 E0.0491
G1 X-15.3 Y-27.14 E0.0369
G1 X-13.45 Y-27.96 E0.0717
G1 X-11.04 Y-28.71 E0.089
G1 X-10.44 Y-28.94 E0.023
G1 X-9.75 Y-29.4 E0.0292
G1 X-9.18 Y-30.08 E0.0311
G1 X-8.89 Y-30.69 E0.024
G1 X-8.76 Y-31.21 E0.0189
G1 X-8.23 Y-34.27 E0.11
G1 X-7.54 Y-37.03 E0.1008
G1 X-7.53 Y-37.63 E0.0209
G1 X-7.74 Y-38.16 E0.0201
G1 X-8.15 Y-38.59 E0.0212
G1 X-8.72 Y-38.95 E0.0241
G1 X-8.88 Y-39.11 E0.0077
G1 X-8.85 Y-39.21 E0.0036
G1 X-5.62 Y-39.21 E0.1143
G1 X-5.61 Y-39.08 E0.0045
G1 X-5.8 Y-38.46 E0.0231
G1 X-5.76 Y-37.92 E0.0191
G1 X-5.04 Y-35.46 E0.0905
G1 X-4.46 Y-32.54 E0.1051
G1 X-4.26 Y-31.83 E0.0262
G1 X-3.94 Y-31.28 E0.0224
G1 X-3.52 Y-30.82 E0.0221
G1 X-2.98 Y-30.43 E0.0235
G1 X-2.24 Y-30.11 E0.0286
G1 X-1.36 Y-30 E0.0314
G1 X1.27 Y-29.99 E0.0929
G1 X1.92 Y-30.05 E0.0233
G1 X2.71 Y-30.28 E0.0289
G1 X3.37 Y-30.69 E0.0276
G1 X3.91 Y-31.25 E0.0276
G1 X4.27 Y-31.87 E0.0252
G1 X4.46 Y-32.53 E0.0242
G1 X4.96 Y-35.14 E0.094
G1 X5.73 Y-37.84 E0.0995
G1 X5.78 Y-38.3 E0.0163
G1 X5.74 Y-38.63 E0.0118
G1 X5.58 Y-39.21 E0.0212
G1 X8.95 Y-39.21 E0.1195
G1 X8.74 Y-38.97 E0.0114
G1 X8.13 Y-38.6 E0.0253
G1 X7.8 Y-38.26 E0.0166
G1 X7.6 Y-37.86 E0.0161
G1 X7.52 Y-37.42 E0.0156
G1 X7.57 Y-36.91 E0.0182
G1 X8.22 Y-34.26 E0.0965
G1 X8.76 Y-31.18 E0.1108
G1 X9.05 Y-30.31 E0.0324
G1 X9.45 Y-29.71 E0.0255
G1 X10.09 Y-29.14 E0.0301
G1 X10.91 Y-28.75 E0.0323
G1 X13.45 Y-27.94 E0.0942
G1 X14.45 Y-27.54 E0.0383
G1 X16.19 Y-26.63 E0.0694
G1 X16.96 Y-26.11 E0.0326
G1 X17.73 Y-25.4 E0.0372
G1 X18.16 Y-24.77 E0.0269
G1 X18.33 Y-23.69 E0.0386
G1 X18.33 Y-9.67 E0.4958
G1 X18.42 Y-9.04 E0.0228
G1 X18.71 Y-8.52 E0.0209
G1 X19.2 Y-8.12 E0.0226
G1 X18.53 Y-6.85 E0.0508
G1 X18.34 Y-5.99 E0.0311
G1 X18.32 Y20.84 E0.949
G1 X18.37 Y21.25 E0.0146
G1 X18.52 Y21.6 E0.0136
G1 X18.82 Y22 E0.0176
G1 X18.81 Y22.32 E0.0111
G1 X18.49 Y22.78 E0.02
G1 X18.32 Y23.44 E0.0242
G1 X18.33 Y25.8 E0.0832
G1 X18.28 Y26.93 E0.0403
G1 X18 Y28.4 E0.0526
G1 X17.71 Y29.33 E0.0348
G1 X16.93 Y31.02 E0.0657
G1 X16.38 Y31.89 E0.0362
G1 X15.29 Y33.24 E0.0616
;
; 'Loop Path', 1.4 [feed mm/s], 40.0 [head mm/s]
G1 X13.95 Y33.19 E0 F15000
G1 X12.61 Y34.37 E0.0631 F2400
G1 X10.83 Y35.54 E0.0752
G1 X9.67 Y36.15 E0.0464
G1 X7.4 Y37.08 E0.0865
G1 X5.52 Y37.64 E0.0696
G1 X3.7 Y38 E0.0655
G1 X1.87 Y38.21 E0.065
G1 X-0.41 Y38.29 E0.0808
G1 X-2.57 Y38.14 E0.0768
G1 X-4.44 Y37.88 E0.0665
G1 X-6.49 Y37.39 E0.0745
G1 X-8.65 Y36.61 E0.0813
G1 X-9.74 Y36.12 E0.0424
G1 X-11.76 Y34.96 E0.0823
G1 X-12.88 Y34.14 E0.0491
G1 X-14.27 Y32.88 E0.0664
G1 X-15.09 Y31.93 E0.0444
G1 X-16.02 Y30.56 E0.0586
G1 X-16.45 Y29.74 E0.0325
G1 X-17.03 Y28.2 E0.0584
G1 X-17.3 Y26.62 E0.0566
G1 X-17.32 Y23.46 E0.1117
G1 X-17.4 Y22.82 E0.023
G1 X-17.66 Y22.11 E0.0268
G1 X-17.4 Y21.48 E0.0241
G1 X-17.32 Y20.81 E0.0237
G1 X-17.33 Y-5.79 E0.941
G1 X-17.36 Y-6.37 E0.0206
G1 X-17.5 Y-7 E0.0227
G1 X-17.91 Y-7.82 E0.0323
G1 X-17.9 Y-7.91 E0.0033
G1 X-17.51 Y-8.58 E0.0276
G1 X-17.34 Y-9.29 E0.0257
G1 X-17.33 Y-23.88 E0.5159
G1 X-17.26 Y-24.32 E0.0158
G1 X-16.87 Y-24.85 E0.0232
G1 X-16.18 Y-25.45 E0.0325
G1 X-14.93 Y-26.22 E0.052
G1 X-13.14 Y-27.01 E0.0692
G1 X-10.75 Y-27.75 E0.0885
G1 X-10.09 Y-28 E0.025
G1 X-9.41 Y-28.41 E0.0281
G1 X-8.71 Y-29.04 E0.0332
G1 X-8.24 Y-29.71 E0.0289
G1 X-7.93 Y-30.41 E0.0271
G1 X-7.79 Y-30.97 E0.0205
G1 X-7.26 Y-33.95 E0.1072
G1 X-6.81 Y-35.9 E0.0707
G1 X-6.48 Y-36.91 E0.0374
G1 X-5.91 Y-34.74 E0.0793
G1 X-5.43 Y-32.27 E0.0889
G1 X-5.14 Y-31.32 E0.0352
G1 X-4.66 Y-30.57 E0.0316
G1 X-4.03 Y-29.94 E0.0314
G1 X-3.27 Y-29.45 E0.0322
G1 X-2.38 Y-29.12 E0.0335
G1 X-1.52 Y-29 E0.0307
G1 X1.18 Y-28.99 E0.0955
G1 X2.04 Y-29.05 E0.0305
G1 X2.97 Y-29.31 E0.0343
G1 X3.7 Y-29.7 E0.0291
G1 X4.35 Y-30.23 E0.0299
G1 X4.86 Y-30.85 E0.0283
G1 X5.24 Y-31.59 E0.0294
G1 X5.44 Y-32.34 E0.0274
G1 X5.9 Y-34.69 E0.0848
G1 X6.51 Y-37.03 E0.0853
G1 X7.31 Y-33.65 E0.1227
G1 X7.79 Y-30.92 E0.098
G1 X8.09 Y-29.99 E0.0345
G1 X8.57 Y-29.21 E0.0328
G1 X9.2 Y-28.56 E0.032
G1 X10.01 Y-28.03 E0.0341
G1 X10.66 Y-27.78 E0.0245
G1 X13.07 Y-27.03 E0.0893
G1 X14.9 Y-26.21 E0.071
G1 X15.69 Y-25.77 E0.0321
G1 X16.68 Y-25.04 E0.0434
G1 X17.22 Y-24.41 E0.0294
G1 X17.33 Y-23.86 E0.0199
G1 X17.33 Y-9.54 E0.5062
G1 X17.43 Y-8.87 E0.0239
G1 X17.6 Y-8.42 E0.0172
G1 X17.93 Y-7.87 E0.0226
G1 X17.59 Y-7.2 E0.0268
G1 X17.4 Y-6.61 E0.0218
G1 X17.33 Y-5.77 E0.03
G1 X17.32 Y20.78 E0.939
G1 X17.34 Y21.21 E0.015
G1 X17.45 Y21.66 E0.0166
G1 X17.68 Y22.15 E0.0188
G1 X17.39 Y22.9 E0.0284
G1 X17.32 Y23.51 E0.022
G1 X17.31 Y26.59 E0.1089
G1 X17.03 Y28.14 E0.0557
G1 X16.78 Y28.95 E0.0299
G1 X16.06 Y30.52 E0.0611
G1 X15.51 Y31.38 E0.0361
G1 X14.49 Y32.63 E0.0572
;
; 'Destring/Wipe/Jump Path', 0.0 [feed mm/s], 55.0 [head mm/s]
G1 X14.49 Y32.63 E0 F15000
G1 E-1.25 F900
G1 X14.49 Y32.63 E0 F3300
G1 X13.95 Y33.19 E0
G1 X12.61 Y34.37 E0
G1 X10.83 Y35.54 E0
G1 X9.86 Y36.05 E0
;
; 'Loop Path', 1.3 [feed mm/s], 37.4 [head mm/s]
G1 X27.71 Y-28.91 E0 F15000
G1 E1.25 F900
G1 X27.3 Y-29.59 E0.0279 F2241.8
G1 X27.55 Y-30.11 E0.0203
G1 X27.65 Y-30.61 E0.0181
G1 X27.5 Y-31.68 E0.0381
G1 X27.64 Y-32.08 E0.015
G1 X27.91 Y-32.51 E0.0181
G1 X28.07 Y-32.44 E0.0061
G1 X28.4 Y-31.73 E0.0276
G1 X28.52 Y-30.86 E0.031
G1 X28.48 Y-29.89 E0.0343
G1 X28.31 Y-29.18 E0.0261
G1 X28.19 Y-28.89 E0.0109
;
; 'Destring/Wipe/Jump Path', 0.0 [feed mm/s], 55.0 [head mm/s]
G1 X28.19 Y-28.89 E0 F15000
G1 E-1.25 F900
G1 X28.19 Y-28.89 E0 F3300
G1 X27.71 Y-28.91 E0
G1 X27.3 Y-29.59 E0
G1 X27.55 Y-30.11 E0
G1 X27.65 Y-30.61 E0
G1 X27.5 Y-31.68 E0
G1 X27.64 Y-32.08 E0
G1 X27.91 Y-32.51 E0
G1 X28.07 Y-32.44 E0
G1 X28.4 Y-31.73 E0
G1 X28.42 Y-31.58 E0
;
; 'Loop Path', 1.3 [feed mm/s], 37.4 [head mm/s]
G1 X-28.21 Y-28.9 E0 F15000
G1 E1.25 F900
G1 X-28.48 Y-29.84 E0.0345 F2241.8
G1 X-28.52 Y-30.83 E0.0352
G1 X-28.42 Y-31.63 E0.0284
G1 X-28.23 Y-32.15 E0.0197
G1 X-28 Y-32.52 E0.0154
G1 X-27.79 Y-32.35 E0.0096
G1 X-27.51 Y-31.76 E0.0231
G1 X-27.52 Y-31.49 E0.0096
G1 X-27.67 Y-30.72 E0.0275
G1 X-27.62 Y-30.26 E0.0166
G1 X-27.5 Y-29.96 E0.0112
G1 X-27.29 Y-29.64 E0.0136
G1 X-27.47 Y-29.27 E0.0146
G1 X-27.74 Y-28.86 E0.0172
;
; 'Destring/Wipe/Jump Path', 0.0 [feed mm/s], 55.0 [head mm/s]
G1 X-27.74 Y-28.86 E0 F15000
G1 E-1.25 F900
G1 X-27.74 Y-28.86 E0 F3300
G1 X-28.21 Y-28.9 E0
G1 X-28.48 Y-29.84 E0
G1 X-28.52 Y-30.83 E0
G1 X-28.42 Y-31.63 E0
G1 X-28.23 Y-32.15 E0
G1 X-28 Y-32.52 E0
G1 X-27.79 Y-32.35 E0
G1 X-27.51 Y-31.76 E0
G1 X-27.52 Y-31.49 E0
G1 X-27.53 Y-31.45 E0
;
; Post-layer lift
G1 X-27.53 Y-31.45 Z3.25 E0 F210
; END_LAYER_OBJECT z=3.00
; BEGIN_LAYER_OBJECT z=3.25
;
; 'Perimeter Path', 0.5 [feed mm/s], 14.9 [head mm/s]
G1 X-27.46 Y-28.8 Z3.25 E0 F15000
G1 E1.25 F900
G1 X-27.57 Y-27.96 E0.0298 F897
G1 X-27.9 Y-27.75 E0.0137
G1 X-28.19 Y-27.65 E0.0111
G1 X-28.32 Y-27.73 E0.0051
G1 X-28.38 Y-28.18 E0.0161
G1 X-28.43 Y-28.3 E0.0048
G1 X-28.86 Y-28.79 E0.0228
G1 X-29.15 Y-29.42 E0.0246
G1 X-29.32 Y-30.29 E0.0314
G1 X-29.33 Y-31.26 E0.0342
G1 X-29.19 Y-31.97 E0.0256
G1 X-28.97 Y-32.51 E0.0207
G1 X-28.68 Y-32.95 E0.0186
G1 X-28.32 Y-33.3 E0.0178
G1 X-27.97 Y-33.41 E0.0129
G1 X-27.58 Y-33.27 E0.0146
G1 X-27.14 Y-32.82 E0.0224
G1 X-26.75 Y-32.13 E0.028
G1 X-26.68 Y-31.55 E0.0205
G1 X-26.79 Y-30.9 E0.0236
G1 X-26.76 Y-30.71 E0.0066
G1 X-26.63 Y-30.51 E0.0086
G1 X-26.29 Y-30.3 E0.0141
G1 X-26.25 Y-29.98 E0.0114
G1 X-26.39 Y-29.5 E0.0175
G1 X-26.58 Y-29.09 E0.0163
G1 X-27.01 Y-28.51 E0.0253
G1 X-27.83 Y-28.46 E0.0292
;
; 'Loop Path', 1.3 [feed mm/s], 37.4 [head mm/s]
G1 X-28.04 Y-29.4 E0 F15000
G1 X-28.28 Y-30.04 E0.0242 F2241.8
G1 X-28.34 Y-30.92 E0.031
G1 X-28.25 Y-31.63 E0.0254
G1 X-28.05 Y-32.1 E0.0181
G1 X-27.95 Y-32.19 E0.0048
G1 X-27.71 Y-31.81 E0.016
G1 X-27.69 Y-31.58 E0.0081
G1 X-27.8 Y-30.91 E0.0242
G1 X-27.69 Y-30.32 E0.021
G1 X-27.41 Y-29.86 E0.0192
G1 X-27.38 Y-29.74 E0.0044
G1 X-27.52 Y-29.5 E0.0097
;
; 'Destring/Wipe/Jump Path', 0.0 [feed mm/s], 60.0 [head mm/s]
G1 X-27.52 Y-29.5 E0 F15000
G1 E-1.25 F900
G1 X-27.52 Y-29.5 E0 F3600
G1 X-28.04 Y-29.4 E0
G1 X-28.28 Y-30.04 E0
G1 X-28.34 Y-30.92 E0
G1 X-28.25 Y-31.63 E0
G1 X-28.05 Y-32.1 E0
G1 X-27.95 Y-32.19 E0
G1 X-27.71 Y-31.81 E0
G1 X-27.69 Y-31.58 E0
G1 X-27.8 Y-30.91 E0
G1 X-27.69 Y-30.32 E0
G1 X-27.63 Y-30.22 E0
;
; 'Perimeter Path', 0.5 [feed mm/s], 14.9 [head mm/s]
G1 X27.9 Y-28.59 E0 F15000
G1 E1.25 F900
G1 X27.84 Y-27.79 E0.0284 F897
G1 X27.33 Y-28.15 E0.0222
G1 X26.76 Y-28.8 E0.0306
G1 X26.41 Y-29.42 E0.025
G1 X26.26 Y-29.91 E0.0184
G1 X26.27 Y-30.27 E0.0124
G1 X26.59 Y-30.5 E0.014
G1 X26.71 Y-30.71 E0.0086
G1 X26.76 Y-30.99 E0.0101
G1 X26.68 Y-31.58 E0.0214
G1 X26.73 Y-32.09 E0.018
G1 X27.12 Y-32.79 E0.0282
G1 X27.54 Y-33.25 E0.0222
G1 X27.9 Y-33.4 E0.0136
G1 X28.24 Y-33.35 E0.0123
G1 X28.67 Y-32.96 E0.0204
G1 X28.94 Y-32.57 E0.0169
G1 X29.23 Y-31.84 E0.0278
G1 X29.34 Y-30.9 E0.0335
G1 X29.26 Y-29.92 E0.0348
G1 X29.06 Y-29.21 E0.0261
G1 X28.84 Y-28.77 E0.0175
G1 X28.42 Y-28.3 E0.0221
G1 X28.35 Y-28 E0.0109
G1 X27.65 Y-28.46 E0.0297
;
; 'Loop Path', 1.3 [feed mm/s], 37.4 [head mm/s]
G1 X27.54 Y-29.46 E0 F15000
G1 X27.36 Y-29.78 E0.013 F2241.8
G1 X27.37 Y-29.82 E0.0016
G1 X27.67 Y-30.41 E0.0234
G1 X27.77 Y-30.94 E0.019
G1 X27.68 Y-31.69 E0.0266
G1 X27.83 Y-32.05 E0.0139
G1 X27.96 Y-32.2 E0.0068
G1 X28.18 Y-31.83 E0.0152
G1 X28.32 Y-31.22 E0.0222
G1 X28.32 Y-30.55 E0.0236
G1 X28.25 Y-29.96 E0.0211
G1 X28.05 Y-29.42 E0.0202
;
; 'Destring/Wipe/Jump Path', 0.0 [feed mm/s], 60.0 [head mm/s]
G1 X28.05 Y-29.42 E0 F15000
G1 E-1.25 F900
G1 X28.05 Y-29.42 E0 F3600
G1 X27.54 Y-29.46 E0
G1 X27.36 Y-29.78 E0
G1 X27.37 Y-29.82 E0
G1 X27.67 Y-30.41 E0
G1 X27.77 Y-30.94 E0
G1 X27.68 Y-31.69 E0
G1 X27.83 Y-32.05 E0
G1 X27.96 Y-32.2 E0
G1 X28.18 Y-31.83 E0
G1 X28.32 Y-31.22 E0
G1 X28.32 Y-30.55 E0
G1 X28.28 Y-30.23 E0
;
; 'Perimeter Path', 0.5 [feed mm/s], 14.9 [head mm/s]
G1 X15.43 Y33.76 E0 F15000
G1 E1.25 F900
G1 X15.35 Y34.58 E0.0289 F897
G1 X13.86 Y35.89 E0.0703
G1 X12.82 Y36.63 E0.0452
G1 X11.5 Y37.42 E0.0545
G1 X9.35 Y38.48 E0.0846
G1 X6.97 Y39.29 E0.0888
G1 X5.14 Y39.75 E0.0667
G1 X3.15 Y40.08 E0.0716
G1 X0.83 Y40.26 E0.0824
G1 X-1.61 Y40.22 E0.0863
G1 X-3.71 Y40 E0.0746
G1 X-5.83 Y39.6 E0.0763
G1 X-7.99 Y38.97 E0.0795
G1 X-9.4 Y38.44 E0.0534
G1 X-11.65 Y37.34 E0.0884
G1 X-12.86 Y36.61 E0.0499
G1 X-14.48 Y35.4 E0.0716
G1 X-15.75 Y34.2 E0.0618
G1 X-16.49 Y33.36 E0.0397
G1 X-17.18 Y32.45 E0.0404
G1 X-18.19 Y30.67 E0.0723
G1 X-18.62 Y29.65 E0.0391
G1 X-18.96 Y28.55 E0.0408
G1 X-19.27 Y26.82 E0.0622
G1 X-19.29 Y23.54 E0.1158
G1 X-19.42 Y23.12 E0.0156
G1 X-19.8 Y22.82 E0.0171
G1 X-19.8 Y21.56 E0.0448
G1 X-19.76 Y21.43 E0.0046
G1 X-19.42 Y21.2 E0.0146
G1 X-19.29 Y20.89 E0.0118
G1 X-19.31 Y-24.04 E1.5891
G1 X-19.25 Y-24.6 E0.0198
G1 X-18.94 Y-25.39 E0.0301
G1 X-18.54 Y-25.94 E0.0241
G1 X-17.45 Y-26.97 E0.0531
G1 X-16.71 Y-27.47 E0.0316
G1 X-15.1 Y-28.32 E0.0643
G1 X-13.7 Y-28.9 E0.0535
G1 X-11.27 Y-29.66 E0.0902
G1 X-10.55 Y-29.97 E0.0278
G1 X-10.05 Y-30.4 E0.0233
G1 X-9.72 Y-30.93 E0.0221
G1 X-9.59 Y-31.34 E0.0151
G1 X-9 Y-34.44 E0.1118
G1 X-8.3 Y-37.08 E0.0966
G1 X-8.29 Y-37.38 E0.0105
G1 X-8.44 Y-37.63 E0.0103
G1 X-9.33 Y-38.13 E0.036
G1 X-9.82 Y-38.54 E0.0227
G1 X-10.19 Y-39 E0.0209
G1 X-10.44 Y-39.49 E0.0195
G1 X-10.56 Y-39.93 E0.0162
G1 X-10.59 Y-40.21 E0.0099
G1 X-4.29 Y-40.21 E0.2228
G1 X-4.13 Y-40.2 E0.0059
G1 X-4.22 Y-39.68 E0.0185
G1 X-4.5 Y-39.01 E0.0258
G1 X-4.93 Y-38.45 E0.0248
G1 X-5.02 Y-38.05 E0.0145
G1 X-4.36 Y-35.93 E0.0786
G1 X-3.59 Y-32.43 E0.1268
G1 X-3.35 Y-31.91 E0.0201
G1 X-2.89 Y-31.45 E0.023
G1 X-2.31 Y-31.12 E0.0239
G1 X-1.44 Y-30.98 E0.0309
G1 X1.36 Y-30.98 E0.0991
G1 X1.94 Y-31.03 E0.0206
G1 X2.48 Y-31.21 E0.0199
G1 X3.02 Y-31.55 E0.023
G1 X3.42 Y-32.04 E0.0223
G1 X3.62 Y-32.55 E0.0193
G1 X4.27 Y-35.59 E0.11
G1 X4.59 Y-36.69 E0.0403
G1 X5.04 Y-38 E0.049
G1 X5 Y-38.37 E0.0132
G1 X4.5 Y-39 E0.0286
G1 X4.23 Y-39.6 E0.0231
G1 X4.13 Y-40.11 E0.0183
G1 X4.21 Y-40.21 E0.0047
G1 X10.46 Y-40.21 E0.2209
G1 X10.61 Y-40.19 E0.0052
G1 X10.46 Y-39.54 E0.0235
G1 X10.2 Y-39 E0.0212
G1 X9.77 Y-38.49 E0.0235
G1 X9.34 Y-38.13 E0.0198
G1 X8.51 Y-37.68 E0.0337
G1 X8.31 Y-37.4 E0.0121
G1 X8.32 Y-36.99 E0.0145
G1 X9.03 Y-34.32 E0.0977
G1 X9.59 Y-31.32 E0.1078
G1 X9.83 Y-30.7 E0.0237
G1 X10.24 Y-30.21 E0.0227
G1 X10.75 Y-29.86 E0.022
G1 X11.28 Y-29.66 E0.0199
G1 X13.69 Y-28.9 E0.0894
G1 X15.02 Y-28.36 E0.0508
G1 X16.69 Y-27.49 E0.0664
G1 X17.51 Y-26.91 E0.0358
G1 X18.52 Y-25.96 E0.0487
G1 X18.89 Y-25.45 E0.0223
G1 X19.12 Y-24.98 E0.0188
G1 X19.3 Y-23.9 E0.0385
G1 X19.29 Y20.9 E1.5846
G1 X19.36 Y21.14 E0.0087
G1 X19.53 Y21.3 E0.0084
G1 X19.79 Y21.42 E0.0102
G1 X19.8 Y22.79 E0.0484
G1 X19.74 Y22.9 E0.0043
G1 X19.48 Y23.07 E0.011
G1 X19.29 Y23.52 E0.0175
G1 X19.3 Y25.81 E0.0811
G1 X19.25 Y26.96 E0.0406
G1 X18.95 Y28.62 E0.0597
G1 X18.62 Y29.68 E0.0391
G1 X18.19 Y30.68 E0.0386
G1 X17.7 Y31.6 E0.0369
G1 X17.16 Y32.47 E0.0362
G1 X15.9 Y34.02 E0.0705
G1 X15.09 Y34.12 E0.0291
;
; 'Loop Path', 1.3 [feed mm/s], 37.4 [head mm/s]
G1 X14.64 Y33.88 E0 F15000
G1 X13.24 Y35.1 E0.0658 F2241.8
G1 X12.2 Y35.84 E0.045
G1 X10.28 Y36.93 E0.0781
G1 X8.95 Y37.54 E0.052
G1 X6.63 Y38.36 E0.0869
G1 X4.45 Y38.87 E0.079
G1 X2.49 Y39.14 E0.0702
G1 X0.45 Y39.27 E0.0721
G1 X-1.73 Y39.2 E0.0771
G1 X-4.23 Y38.89 E0.0893
G1 X-5.69 Y38.59 E0.0526
G1 X-7.65 Y38.04 E0.072
G1 X-9.87 Y37.13 E0.0847
G1 X-11.26 Y36.42 E0.0556
G1 X-12.68 Y35.52 E0.0593
G1 X-14.15 Y34.36 E0.0662
G1 X-15.04 Y33.49 E0.0442
G1 X-16.31 Y31.92 E0.0711
G1 X-16.93 Y30.94 E0.041
G1 X-17.66 Y29.37 E0.0614
G1 X-17.96 Y28.43 E0.0349
G1 X-18.25 Y26.76 E0.0598
G1 X-18.29 Y25.88 E0.0311
G1 X-18.29 Y23.38 E0.0885
G1 X-18.42 Y22.9 E0.0176
G1 X-18.57 Y22.61 E0.0114
G1 X-18.79 Y22.32 E0.0132
G1 X-18.8 Y22.02 E0.0104
G1 X-18.42 Y21.48 E0.0234
G1 X-18.29 Y20.95 E0.0193
G1 X-18.3 Y-23.29 E1.5647
G1 X-18.29 Y-24.3 E0.0358
G1 X-18.06 Y-24.88 E0.0221
G1 X-17.74 Y-25.33 E0.0195
G1 X-16.81 Y-26.21 E0.0452
G1 X-15.4 Y-27.07 E0.0583
G1 X-14.44 Y-27.53 E0.038
G1 X-13.3 Y-27.98 E0.0431
G1 X-10.57 Y-28.84 E0.1013
G1 X-9.88 Y-29.21 E0.0276
G1 X-9.25 Y-29.79 E0.0302
G1 X-8.79 Y-30.53 E0.0309
G1 X-8.59 Y-31.2 E0.0248
G1 X-8.01 Y-34.34 E0.1128
G1 X-7.33 Y-36.83 E0.0914
G1 X-7.28 Y-37.47 E0.0228
G1 X-7.48 Y-38.02 E0.0206
G1 X-7.84 Y-38.43 E0.0194
G1 X-8.74 Y-38.95 E0.0369
G1 X-9.03 Y-39.17 E0.0128
G1 X-8.86 Y-39.21 E0.006
G1 X-5.63 Y-39.21 E0.1144
G1 X-5.9 Y-38.74 E0.0192
G1 X-6.02 Y-38.1 E0.0227
G1 X-5.95 Y-37.63 E0.0171
G1 X-5.23 Y-35.34 E0.0847
G1 X-4.58 Y-32.25 E0.1119
G1 X-4.34 Y-31.62 E0.0238
G1 X-3.89 Y-31 E0.0271
G1 X-3.3 Y-30.51 E0.0272
G1 X-2.69 Y-30.2 E0.0241
G1 X-1.87 Y-30.01 E0.0297
G1 X-1.25 Y-29.98 E0.0219
G1 X1.43 Y-29.98 E0.0949
G1 X2.22 Y-30.06 E0.0281
G1 X3.11 Y-30.4 E0.0338
G1 X3.76 Y-30.87 E0.0284
G1 X4.3 Y-31.54 E0.0304
G1 X4.59 Y-32.3 E0.0287
G1 X5.24 Y-35.34 E0.11
G1 X5.66 Y-36.78 E0.053
G1 X6 Y-37.75 E0.0363
G1 X6.05 Y-38.35 E0.0216
G1 X5.91 Y-38.79 E0.016
G1 X5.71 Y-39.09 E0.0128
G1 X5.76 Y-39.21 E0.0045
G1 X8.94 Y-39.21 E0.1124
G1 X8.83 Y-39 E0.0083
G1 X8.01 Y-38.55 E0.0332
G1 X7.71 Y-38.31 E0.0135
G1 X7.43 Y-37.9 E0.0175
G1 X7.29 Y-37.39 E0.0188
G1 X7.34 Y-36.78 E0.0217
G1 X8.03 Y-34.2 E0.0945
G1 X8.59 Y-31.17 E0.109
G1 X8.84 Y-30.42 E0.0278
G1 X9.29 Y-29.75 E0.0285
G1 X9.94 Y-29.17 E0.0308
G1 X10.6 Y-28.83 E0.0262
G1 X13.31 Y-27.98 E0.1006
G1 X14.44 Y-27.52 E0.0431
G1 X16.07 Y-26.68 E0.0648
G1 X16.81 Y-26.19 E0.0315
G1 X17.69 Y-25.39 E0.0421
G1 X18.06 Y-24.88 E0.0222
G1 X18.28 Y-24.31 E0.0218
G1 X18.3 Y-23.75 E0.0196
G1 X18.29 Y20.86 E1.5778
G1 X18.33 Y21.27 E0.0147
G1 X18.51 Y21.65 E0.0148
G1 X18.76 Y21.98 E0.0147
G1 X18.8 Y22.32 E0.012
G1 X18.42 Y22.86 E0.0236
G1 X18.29 Y23.37 E0.0186
G1 X18.3 Y25.78 E0.0852
G1 X18.25 Y26.92 E0.0404
G1 X17.98 Y28.37 E0.0521
G1 X17.69 Y29.31 E0.0348
G1 X16.9 Y30.99 E0.0657
G1 X16.28 Y31.96 E0.0406
G1 X15.19 Y33.31 E0.0616
;
; 'Loop Path', 1.4 [feed mm/s], 40.0 [head mm/s]
G1 X13.92 Y33.17 E0 F15000
G1 X12.62 Y34.32 E0.0615 F2400
G1 X11.58 Y35.05 E0.0449
G1 X9.65 Y36.13 E0.0782
G1 X8.5 Y36.64 E0.0446
G1 X6.34 Y37.41 E0.081
G1 X4.15 Y37.91 E0.0794
G1 X1.97 Y38.19 E0.0778
G1 X0.06 Y38.27 E0.0676
G1 X-1.96 Y38.19 E0.0715
G1 X-4.23 Y37.89 E0.0809
G1 X-6.4 Y37.39 E0.0788
G1 X-8.51 Y36.64 E0.079
G1 X-9.72 Y36.1 E0.0471
G1 X-11.63 Y35.01 E0.0778
G1 X-12.67 Y34.28 E0.0448
G1 X-14.05 Y33.09 E0.0644
G1 X-14.93 Y32.11 E0.0465
G1 X-15.6 Y31.19 E0.0401
G1 X-16.43 Y29.74 E0.0593
G1 X-16.95 Y28.35 E0.0526
G1 X-17.19 Y27.24 E0.0401
G1 X-17.28 Y25.96 E0.0455
G1 X-17.29 Y23.33 E0.093
G1 X-17.38 Y22.83 E0.018
G1 X-17.64 Y22.21 E0.0237
G1 X-17.63 Y22.11 E0.0035
G1 X-17.34 Y21.38 E0.0276
G1 X-17.29 Y20.85 E0.0189
G1 X-17.3 Y-23.5 E1.5686
G1 X-17.29 Y-24.13 E0.0225
G1 X-17.16 Y-24.44 E0.0119
G1 X-16.66 Y-25.03 E0.0272
G1 X-15.68 Y-25.76 E0.0433
G1 X-14.05 Y-26.61 E0.0651
G1 X-12.9 Y-27.06 E0.0435
G1 X-10.47 Y-27.82 E0.0902
G1 X-9.52 Y-28.25 E0.0366
G1 X-8.87 Y-28.74 E0.0289
G1 X-8.28 Y-29.4 E0.0313
G1 X-7.82 Y-30.25 E0.0342
G1 X-7.61 Y-30.98 E0.0266
G1 X-7.07 Y-33.94 E0.1067
G1 X-6.61 Y-35.77 E0.0667
G1 X-6.48 Y-36.06 E0.011
G1 X-6.09 Y-34.62 E0.0526
G1 X-5.54 Y-31.95 E0.0966
G1 X-5.26 Y-31.22 E0.0276
G1 X-4.83 Y-30.55 E0.0281
G1 X-4.21 Y-29.95 E0.0306
G1 X-3.26 Y-29.34 E0.04
G1 X-2.28 Y-29.05 E0.0361
G1 X-1.31 Y-28.98 E0.0344
G1 X1.37 Y-28.98 E0.0948
G1 X2.32 Y-29.06 E0.0337
G1 X3.17 Y-29.32 E0.0313
G1 X3.91 Y-29.71 E0.0297
G1 X4.72 Y-30.42 E0.0382
G1 X5.28 Y-31.26 E0.0358
G1 X5.55 Y-32 E0.0278
G1 X6.07 Y-34.54 E0.0915
G1 X6.48 Y-36.05 E0.0554
G1 X6.71 Y-35.39 E0.0245
G1 X7.08 Y-33.88 E0.055
G1 X7.62 Y-30.93 E0.1061
G1 X7.87 Y-30.13 E0.0296
G1 X8.33 Y-29.34 E0.0322
G1 X8.95 Y-28.67 E0.0326
G1 X9.78 Y-28.1 E0.0355
G1 X10.64 Y-27.76 E0.0327
G1 X13.04 Y-27.02 E0.0888
G1 X14.87 Y-26.22 E0.0706
G1 X16.19 Y-25.42 E0.0548
G1 X16.95 Y-24.73 E0.0362
G1 X17.28 Y-24.19 E0.0224
G1 X17.3 Y-23.66 E0.0188
G1 X17.29 Y20.91 E1.5763
G1 X17.34 Y21.41 E0.0177
G1 X17.64 Y22.19 E0.0294
G1 X17.36 Y22.85 E0.0254
G1 X17.29 Y23.38 E0.019
G1 X17.3 Y25.95 E0.0907
G1 X17.18 Y27.41 E0.0518
G1 X16.77 Y28.94 E0.0561
G1 X16.04 Y30.49 E0.0608
G1 X15.49 Y31.36 E0.0362
G1 X14.47 Y32.61 E0.0571
;
; 'Crown Path', 0.9 [feed mm/s], 49.0 [head mm/s]
G1 X-7.36 Y-38.69 E0 F15000
G1 X-6.78 Y-38.42 E0.0112 F2937.2
G1 X-6.54 Y-37.05 E0.0246
G1 X-6.5 Y-36.16 E0.0157
;
; 'Destring/Wipe/Jump Path', 0.0 [feed mm/s], 60.0 [head mm/s]
G1 X-6.5 Y-36.16 E0 F15000
G1 E-1.25 F900
G1 X-6.5 Y-36.16 E0 F3600
G1 X-6.54 Y-37.05 E0
G1 X-6.78 Y-38.42 E0
G1 X-7.36 Y-38.69 E0
;
; Post-layer lift
G1 X-7.36 Y-38.69 Z3.5 E0 F210
; END_LAYER_OBJECT z=3.25
; BEGIN_LAYER_OBJECT z=3.50
;
; 'Perimeter Path', 0.5 [feed mm/s], 14.9 [head mm/s]
G1 X15.41 Y33.74 Z3.5 E0 F15000
G1 E1.25 F900
G1 X15.33 Y34.56 E0.0289 F897
G1 X13.84 Y35.87 E0.0703
G1 X12.81 Y36.61 E0.0449
G1 X10.55 Y37.89 E0.092
G1 X9.2 Y38.49 E0.0522
G1 X6.81 Y39.31 E0.089
G1 X4.96 Y39.76 E0.0677
G1 X3.02 Y40.07 E0.0695
G1 X0.93 Y40.23 E0.0739
G1 X-1.33 Y40.21 E0.08
G1 X-3.56 Y40 E0.0792
G1 X-5.69 Y39.61 E0.0767
G1 X-7.96 Y38.97 E0.0832
G1 X-10.09 Y38.12 E0.0813
G1 X-11.59 Y37.35 E0.0598
G1 X-12.83 Y36.59 E0.0514
G1 X-14.73 Y35.13 E0.0846
G1 X-15.68 Y34.22 E0.0466
G1 X-16.46 Y33.34 E0.0415
G1 X-17.16 Y32.43 E0.0406
G1 X-18.19 Y30.62 E0.0736
G1 X-18.61 Y29.61 E0.0388
G1 X-18.98 Y28.36 E0.0462
G1 X-19.22 Y26.85 E0.0537
G1 X-19.26 Y25.88 E0.0347
G1 X-19.26 Y23.44 E0.0861
G1 X-19.4 Y23.13 E0.0122
G1 X-19.73 Y22.89 E0.0144
G1 X-19.77 Y22.78 E0.004
G1 X-19.77 Y21.43 E0.0476
G1 X-19.39 Y21.23 E0.0152
G1 X-19.26 Y20.9 E0.0126
G1 X-19.27 Y-24.04 E1.5894
G1 X-19.22 Y-24.54 E0.018
G1 X-19 Y-25.19 E0.0242
G1 X-18.53 Y-25.92 E0.0306
G1 X-17.88 Y-26.59 E0.0331
G1 X-16.7 Y-27.46 E0.0519
G1 X-15.55 Y-28.09 E0.0462
G1 X-13.69 Y-28.88 E0.0717
G1 X-12.48 Y-29.29 E0.0451
G1 X-10.83 Y-29.77 E0.0606
G1 X-10.27 Y-30.08 E0.0226
G1 X-9.8 Y-30.51 E0.0227
G1 X-9.49 Y-31.02 E0.021
G1 X-9.36 Y-31.47 E0.0165
G1 X-8.74 Y-34.54 E0.1107
G1 X-8.01 Y-36.98 E0.0901
G1 X-8.01 Y-37.32 E0.012
G1 X-8.23 Y-37.6 E0.0128
G1 X-8.9 Y-37.87 E0.0253
G1 X-9.48 Y-38.21 E0.024
G1 X-10.1 Y-38.78 E0.0296
G1 X-10.48 Y-39.44 E0.0272
G1 X-10.65 Y-40.01 E0.0209
G1 X-10.6 Y-40.21 E0.0074
G1 X-4.29 Y-40.21 E0.2233
G1 X-4.22 Y-40.07 E0.0055
G1 X-4.39 Y-39.44 E0.023
G1 X-4.6 Y-38.99 E0.0176
G1 X-5.24 Y-38.24 E0.0347
G1 X-5.32 Y-38 E0.0091
G1 X-5.3 Y-37.75 E0.0088
G1 X-4.6 Y-35.79 E0.0736
G1 X-4.23 Y-34.39 E0.0514
G1 X-3.81 Y-32.45 E0.0701
G1 X-3.6 Y-31.97 E0.0185
G1 X-3.19 Y-31.52 E0.0215
G1 X-2.65 Y-31.18 E0.0226
G1 X-2.09 Y-31.01 E0.0206
G1 X-1.46 Y-30.96 E0.0224
G1 X1.52 Y-30.96 E0.1053
G1 X2.19 Y-31.03 E0.0238
G1 X2.9 Y-31.31 E0.0272
G1 X3.39 Y-31.71 E0.0223
G1 X3.67 Y-32.11 E0.0175
G1 X3.83 Y-32.52 E0.0155
G1 X4.41 Y-35.1 E0.0937
G1 X4.69 Y-36.1 E0.0365
G1 X5.29 Y-37.75 E0.062
G1 X5.27 Y-38.12 E0.0134
G1 X5.21 Y-38.28 E0.0058
G1 X4.64 Y-38.93 E0.0306
G1 X4.41 Y-39.38 E0.0178
G1 X4.26 Y-39.82 E0.0166
G1 X4.21 Y-40.21 E0.0137
G1 X10.63 Y-40.21 E0.227
G1 X10.62 Y-39.87 E0.0119
G1 X10.32 Y-39.11 E0.0293
G1 X9.88 Y-38.55 E0.0252
G1 X9.45 Y-38.19 E0.0197
G1 X8.91 Y-37.88 E0.0222
G1 X8.27 Y-37.63 E0.024
G1 X8.08 Y-37.43 E0.0098
G1 X8.02 Y-37.07 E0.0128
G1 X8.04 Y-36.89 E0.0066
G1 X8.77 Y-34.41 E0.0912
G1 X9.36 Y-31.45 E0.1067
G1 X9.59 Y-30.8 E0.0246
G1 X10.08 Y-30.22 E0.0269
G1 X10.75 Y-29.8 E0.0277
G1 X12.53 Y-29.28 E0.0657
G1 X13.81 Y-28.84 E0.0477
G1 X15.48 Y-28.13 E0.0643
G1 X16.67 Y-27.47 E0.0481
G1 X17.85 Y-26.61 E0.0516
G1 X18.48 Y-25.96 E0.0323
G1 X18.86 Y-25.43 E0.0231
G1 X19.21 Y-24.58 E0.0323
G1 X19.26 Y-24.04 E0.0191
G1 X19.26 Y20.9 E1.5896
G1 X19.33 Y21.16 E0.0093
G1 X19.51 Y21.34 E0.009
G1 X19.77 Y21.44 E0.0099
G1 X19.77 Y22.77 E0.047
G1 X19.74 Y22.9 E0.0049
G1 X19.38 Y23.12 E0.0148
G1 X19.26 Y23.49 E0.0139
G1 X19.26 Y25.95 E0.0868
G1 X19.17 Y27.38 E0.0508
G1 X18.88 Y28.73 E0.0488
G1 X18.53 Y29.79 E0.0395
G1 X17.75 Y31.48 E0.0656
G1 X17.11 Y32.48 E0.0421
G1 X16.46 Y33.34 E0.0384
G1 X15.88 Y33.99 E0.0307
G1 X15.06 Y34.1 E0.0291
;
; 'Loop Path', 1.3 [feed mm/s], 37.4 [head mm/s]
G1 X14.62 Y33.86 E0 F15000
G1 X13.22 Y35.08 E0.0659 F2241.8
G1 X12.18 Y35.81 E0.0449
G1 X10.03 Y37.03 E0.0874
G1 X8.8 Y37.57 E0.0476
G1 X6.56 Y38.35 E0.0836
G1 X4.23 Y38.87 E0.0845
G1 X2.47 Y39.12 E0.063
G1 X0.35 Y39.23 E0.0752
G1 X-1.54 Y39.18 E0.0666
G1 X-4.06 Y38.9 E0.0898
G1 X-5.53 Y38.6 E0.0528
G1 X-7.64 Y38.02 E0.0777
G1 X-9.97 Y37.06 E0.089
G1 X-11.13 Y36.46 E0.0462
G1 X-12.22 Y35.79 E0.0454
G1 X-14.12 Y34.33 E0.0846
G1 X-15.06 Y33.42 E0.0463
G1 X-16.09 Y32.21 E0.0562
G1 X-16.87 Y31.01 E0.0507
G1 X-17.5 Y29.72 E0.0508
G1 X-17.96 Y28.35 E0.0509
G1 X-18.21 Y26.79 E0.0559
G1 X-18.26 Y25.87 E0.0328
G1 X-18.26 Y23.36 E0.0886
G1 X-18.4 Y22.85 E0.0188
G1 X-18.77 Y22.31 E0.0231
G1 X-18.77 Y22.05 E0.0093
G1 X-18.38 Y21.51 E0.0235
G1 X-18.26 Y20.88 E0.0227
G1 X-18.27 Y-23.91 E1.5841
G1 X-18.16 Y-24.64 E0.026
G1 X-17.7 Y-25.36 E0.0301
G1 X-16.81 Y-26.17 E0.0427
G1 X-16.07 Y-26.67 E0.0316
G1 X-14.43 Y-27.51 E0.0652
G1 X-13.29 Y-27.97 E0.0434
G1 X-10.71 Y-28.77 E0.0953
G1 X-9.85 Y-29.14 E0.0332
G1 X-9.17 Y-29.71 E0.0313
G1 X-8.71 Y-30.33 E0.0273
G1 X-8.43 Y-31.08 E0.0283
G1 X-7.75 Y-34.44 E0.1215
G1 X-7.04 Y-36.73 E0.0845
G1 X-6.98 Y-37.28 E0.0198
G1 X-7.14 Y-37.84 E0.0203
G1 X-7.44 Y-38.24 E0.0178
G1 X-7.78 Y-38.49 E0.0148
G1 X-8.48 Y-38.79 E0.0271
G1 X-8.86 Y-39 E0.0152
G1 X-9.05 Y-39.21 E0.0101
G1 X-5.79 Y-39.21 E0.1156
G1 X-6.11 Y-38.75 E0.0198
G1 X-6.26 Y-38.36 E0.0147
G1 X-6.34 Y-37.93 E0.0156
G1 X-6.27 Y-37.48 E0.0159
G1 X-5.62 Y-35.72 E0.0665
G1 X-5.18 Y-34.08 E0.0599
G1 X-4.78 Y-32.17 E0.0692
G1 X-4.48 Y-31.47 E0.0268
G1 X-3.99 Y-30.89 E0.0269
G1 X-3.37 Y-30.42 E0.0274
G1 X-2.62 Y-30.1 E0.0288
G1 X-1.65 Y-29.97 E0.0348
G1 X1.68 Y-29.97 E0.1178
G1 X2.39 Y-30.04 E0.025
G1 X3.2 Y-30.34 E0.0306
G1 X3.85 Y-30.76 E0.0272
G1 X4.39 Y-31.35 E0.0284
G1 X4.8 Y-32.27 E0.0358
G1 X5.2 Y-34.15 E0.068
G1 X5.61 Y-35.7 E0.0564
G1 X6.26 Y-37.5 E0.0677
G1 X6.32 Y-37.99 E0.0178
G1 X6.19 Y-38.53 E0.0195
G1 X6.07 Y-38.78 E0.0099
G1 X5.76 Y-39.21 E0.0186
G1 X8.92 Y-39.21 E0.1119
G1 X8.93 Y-39.06 E0.0052
G1 X8.53 Y-38.81 E0.0167
G1 X7.76 Y-38.49 E0.0297
G1 X7.37 Y-38.15 E0.0183
G1 X7.1 Y-37.68 E0.019
G1 X7.01 Y-37.12 E0.0201
G1 X7.08 Y-36.62 E0.0178
G1 X7.77 Y-34.29 E0.086
G1 X8.4 Y-31.19 E0.1119
G1 X8.66 Y-30.41 E0.0289
G1 X9.19 Y-29.68 E0.0318
G1 X9.87 Y-29.13 E0.0311
G1 X10.61 Y-28.8 E0.0286
G1 X13.3 Y-27.96 E0.0994
G1 X14.43 Y-27.51 E0.0431
G1 X16.08 Y-26.67 E0.0658
G1 X17.27 Y-25.77 E0.0527
G1 X17.74 Y-25.29 E0.0238
G1 X18.14 Y-24.65 E0.0265
G1 X18.26 Y-23.95 E0.0253
G1 X18.26 Y20.86 E1.5848
G1 X18.34 Y21.39 E0.019
G1 X18.49 Y21.69 E0.0119
G1 X18.74 Y22.01 E0.0141
G1 X18.77 Y22.29 E0.0102
G1 X18.38 Y22.85 E0.0239
G1 X18.26 Y23.39 E0.0197
G1 X18.23 Y26.52 E0.1106
G1 X18.1 Y27.62 E0.0392
G1 X17.66 Y29.28 E0.0609
G1 X17.3 Y30.15 E0.0334
G1 X16.33 Y31.84 E0.0686
G1 X15.67 Y32.73 E0.0394
G1 X15.16 Y33.29 E0.0267
;
; 'Loop Path', 1.4 [feed mm/s], 40.0 [head mm/s]
G1 X13.91 Y33.15 E0 F15000
G1 X12.6 Y34.3 E0.0614 F2400
G1 X11.66 Y34.96 E0.0405
G1 X9.63 Y36.11 E0.0827
G1 X8.03 Y36.81 E0.0616
G1 X6.18 Y37.42 E0.069
G1 X4.11 Y37.87 E0.0749
G1 X1.61 Y38.19 E0.089
G1 X-0.61 Y38.24 E0.0788
G1 X-2.54 Y38.1 E0.0684
G1 X-4.11 Y37.87 E0.0559
G1 X-6.3 Y37.39 E0.0793
G1 X-8.39 Y36.67 E0.0782
G1 X-10.24 Y35.81 E0.0723
G1 X-11.59 Y35.01 E0.0554
G1 X-12.64 Y34.26 E0.0459
G1 X-14.23 Y32.84 E0.0753
G1 X-14.98 Y31.99 E0.0399
G1 X-15.99 Y30.52 E0.063
G1 X-16.4 Y29.7 E0.0327
G1 X-16.95 Y28.25 E0.0547
G1 X-17.19 Y26.98 E0.0456
G1 X-17.26 Y25.98 E0.0357
G1 X-17.26 Y23.33 E0.0938
G1 X-17.35 Y22.8 E0.0187
G1 X-17.61 Y22.19 E0.0237
G1 X-17.33 Y21.52 E0.0257
G1 X-17.26 Y20.88 E0.0225
G1 X-17.27 Y-24.01 E1.5878
G1 X-17.16 Y-24.4 E0.0144
G1 X-16.64 Y-25.01 E0.0282
G1 X-15.66 Y-25.74 E0.0432
G1 X-14.87 Y-26.19 E0.0322
G1 X-12.97 Y-27.03 E0.0733
G1 X-10.44 Y-27.8 E0.0935
G1 X-9.78 Y-28.05 E0.0251
G1 X-9.03 Y-28.5 E0.0308
G1 X-8.36 Y-29.11 E0.0322
G1 X-7.83 Y-29.85 E0.0321
G1 X-7.5 Y-30.67 E0.0313
G1 X-6.84 Y-33.87 E0.1157
G1 X-6.53 Y-35 E0.0415
G1 X-6.28 Y-34.36 E0.0242
G1 X-5.82 Y-32.24 E0.0771
G1 X-5.57 Y-31.42 E0.03
G1 X-5.2 Y-30.76 E0.027
G1 X-4.77 Y-30.27 E0.0229
G1 X-4.02 Y-29.64 E0.0347
G1 X-3.26 Y-29.27 E0.0297
G1 X-2.36 Y-29.02 E0.0333
G1 X-1.5 Y-28.96 E0.0303
G1 X1.57 Y-28.96 E0.1086
G1 X2.54 Y-29.05 E0.0345
G1 X3.51 Y-29.37 E0.0361
G1 X4.37 Y-29.89 E0.0356
G1 X5.01 Y-30.52 E0.0318
G1 X5.49 Y-31.26 E0.0311
G1 X5.76 Y-31.97 E0.027
G1 X6.17 Y-33.9 E0.0697
G1 X6.52 Y-35.08 E0.0436
G1 X6.85 Y-33.84 E0.0455
G1 X7.4 Y-31.06 E0.1002
G1 X7.68 Y-30.14 E0.0342
G1 X8.16 Y-29.36 E0.0323
G1 X8.79 Y-28.7 E0.0322
G1 X9.54 Y-28.17 E0.0324
G1 X10.49 Y-27.78 E0.0364
G1 X12.92 Y-27.05 E0.0898
G1 X14.76 Y-26.24 E0.0711
G1 X15.55 Y-25.8 E0.0321
G1 X16.54 Y-25.09 E0.0429
G1 X17.04 Y-24.56 E0.0257
G1 X17.26 Y-23.53 E0.0376
G1 X17.26 Y20.47 E1.5561
G1 X17.27 Y21.17 E0.0247
G1 X17.35 Y21.59 E0.0151
G1 X17.59 Y22.19 E0.023
G1 X17.33 Y22.84 E0.0247
G1 X17.26 Y23.45 E0.0218
G1 X17.25 Y26.59 E0.1109
G1 X16.98 Y28.09 E0.0538
G1 X16.68 Y29.02 E0.0348
G1 X16.01 Y30.46 E0.0562
G1 X15.46 Y31.33 E0.0363
G1 X14.45 Y32.59 E0.0571
;
; 'Destring/Wipe/Jump Path', 0.0 [feed mm/s], 65.0 [head mm/s]
G1 X14.45 Y32.59 E0 F15000
G1 E-1.25 F900
G1 X14.45 Y32.59 E0 F3900
G1 X13.91 Y33.15 E0
G1 X12.6 Y34.3 E0
G1 X11.66 Y34.96 E0
G1 X9.82 Y36 E0
;
; 'Perimeter Path', 0.5 [feed mm/s], 14.9 [head mm/s]
G1 X27.62 Y-29.06 E0 F15000
G1 E1.25 F900
G1 X27.66 Y-28.28 E0.0277 F897
G1 X27.24 Y-28.59 E0.0184
G1 X26.74 Y-29.14 E0.0264
G1 X26.42 Y-29.7 E0.0226
G1 X26.27 Y-30.13 E0.0163
G1 X26.27 Y-30.43 E0.0103
G1 X26.35 Y-30.54 E0.0048
G1 X26.62 Y-30.65 E0.0104
G1 X26.87 Y-30.9 E0.0126
G1 X26.94 Y-31.12 E0.0081
G1 X26.89 Y-31.81 E0.0246
G1 X26.99 Y-32.16 E0.0127
G1 X27.28 Y-32.61 E0.0191
G1 X27.63 Y-32.95 E0.0173
G1 X27.94 Y-33.06 E0.0115
G1 X28.23 Y-32.98 E0.0104
G1 X28.54 Y-32.73 E0.014
G1 X28.87 Y-32.22 E0.0218
G1 X29.04 Y-31.74 E0.018
G1 X29.12 Y-30.96 E0.0276
G1 X29.01 Y-30.08 E0.0314
G1 X28.8 Y-29.54 E0.0203
G1 X28.63 Y-29.32 E0.0099
G1 X28.32 Y-29.08 E0.0138
G1 X28.13 Y-28.79 E0.0124
G1 X28.12 Y-28.49 E0.0105
G1 X27.41 Y-28.93 E0.0295
;
; 'Loop Path', 1.3 [feed mm/s], 37.4 [head mm/s]
G1 X27.51 Y-30.11 E0 F15000
G1 X27.82 Y-30.53 E0.0182 F2241.8
G1 X27.95 Y-31.06 E0.0194
G1 X27.9 Y-31.64 E0.0208
G1 X28 Y-31.67 E0.0035
G1 X28.1 Y-31.23 E0.016
G1 X28.09 Y-30.72 E0.018
G1 X28.02 Y-30.28 E0.0158
G1 X27.86 Y-29.99 E0.0116
;
; 'Destring/Wipe/Jump Path', 0.0 [feed mm/s], 65.0 [head mm/s]
G1 X27.86 Y-29.99 E0 F15000
G1 E-1.25 F900
G1 X27.86 Y-29.99 E0 F3900
G1 X27.51 Y-30.11 E0
G1 X27.82 Y-30.53 E0
G1 X27.95 Y-31.06 E0
G1 X27.9 Y-31.64 E0
G1 X28 Y-31.67 E0
G1 X28.1 Y-31.23 E0
G1 X28.09 Y-30.72 E0
G1 X28.02 Y-30.28 E0
G1 X27.86 Y-29.99 E0
;
; 'Perimeter Path', 0.5 [feed mm/s], 14.9 [head mm/s]
G1 X-27.44 Y-29.16 E0 F15000
G1 E1.25 F900
G1 X-27.58 Y-28.33 E0.0297 F897
G1 X-27.86 Y-28.18 E0.0113
G1 X-28.07 Y-28.15 E0.0073
G1 X-28.12 Y-28.28 E0.0051
G1 X-28.13 Y-28.78 E0.0177
G1 X-28.27 Y-29.01 E0.0095
G1 X-28.7 Y-29.37 E0.0199
G1 X-29 Y-30.03 E0.0255
G1 X-29.11 Y-30.81 E0.0279
G1 X-29.1 Y-31.38 E0.0203
G1 X-28.97 Y-31.97 E0.0212
G1 X-28.72 Y-32.49 E0.0205
G1 X-28.33 Y-32.93 E0.021
G1 X-27.98 Y-33.06 E0.013
G1 X-27.67 Y-32.98 E0.0114
G1 X-27.25 Y-32.58 E0.0203
G1 X-26.97 Y-32.1 E0.0196
G1 X-26.9 Y-31.81 E0.0108
G1 X-26.93 Y-31.17 E0.0226
G1 X-26.85 Y-30.83 E0.0123
G1 X-26.66 Y-30.65 E0.0091
G1 X-26.39 Y-30.56 E0.0102
G1 X-26.28 Y-30.47 E0.0048
G1 X-26.27 Y-30.12 E0.0125
G1 X-26.5 Y-29.54 E0.0221
G1 X-26.92 Y-28.93 E0.0263
G1 X-27 Y-28.85 E0.0038
;
; 'Loop Path', 1.3 [feed mm/s], 37.4 [head mm/s]
G1 X-27.89 Y-30.01 E0 F15000
G1 X-28.04 Y-30.33 E0.0123 F2241.8
G1 X-28.12 Y-30.99 E0.0237
G1 X-28.05 Y-31.56 E0.0203
G1 X-27.96 Y-31.72 E0.0063
G1 X-27.91 Y-31.66 E0.0028
G1 X-27.94 Y-31.11 E0.0195
G1 X-27.82 Y-30.54 E0.0208
G1 X-27.51 Y-30.08 E0.0195
;
; 'Destring/Wipe/Jump Path', 0.0 [feed mm/s], 65.0 [head mm/s]
G1 X-27.51 Y-30.08 E0 F15000
G1 E-1.25 F900
G1 X-27.51 Y-30.08 E0 F3900
G1 X-27.89 Y-30.01 E0
G1 X-28.04 Y-30.33 E0
G1 X-28.12 Y-30.99 E0
G1 X-28.05 Y-31.56 E0
G1 X-27.96 Y-31.72 E0
G1 X-27.91 Y-31.66 E0
G1 X-27.94 Y-31.11 E0
G1 X-27.82 Y-30.54 E0
G1 X-27.51 Y-30.08 E0
;
; Post-layer lift
G1 X-27.51 Y-30.08 Z3.75 E0 F210
; END_LAYER_OBJECT z=3.50
; BEGIN_LAYER_OBJECT z=3.75
; fan off
M107
;
; 'Support Interface Path', 1.4 [feed mm/s], 53.3 [head mm/s]
G1 X-25.07 Y-31.56 Z3.75 E0 F15000
G1 E1.25 F900
G1 X-24.86 Y-31.77 E0.0077 F3200
;
; 'Destring/Wipe/Jump Path', 0.0 [feed mm/s], 70.0 [head mm/s]
G1 X-24.86 Y-31.77 E0 F15000
G1 E-1.25 F900
G1 X-24.86 Y-31.77 E0 F4200
G1 X-25.07 Y-31.56 E0
G1 X-24.86 Y-31.77 E0
; fan on
M106
;
; 'Perimeter Path', 0.5 [feed mm/s], 14.9 [head mm/s]
G1 X15.39 Y33.72 E0 F15000
G1 E1.25 F900
G1 X15.31 Y34.54 E0.029 F897
G1 X13.81 Y35.84 E0.0703
G1 X12.67 Y36.65 E0.0494
G1 X11.34 Y37.44 E0.0549
G1 X9.21 Y38.47 E0.0835
G1 X6.92 Y39.24 E0.0853
G1 X5.22 Y39.67 E0.0622
G1 X2.9 Y40.06 E0.0833
G1 X0.62 Y40.21 E0.0806
G1 X-1.25 Y40.19 E0.0661
G1 X-3.39 Y40 E0.076
G1 X-5.47 Y39.61 E0.0749
G1 X-7.81 Y38.97 E0.086
G1 X-9.23 Y38.45 E0.0534
G1 X-11.61 Y37.31 E0.0935
G1 X-12.74 Y36.61 E0.0469
G1 X-13.76 Y35.88 E0.0443
G1 X-14.72 Y35.09 E0.044
G1 X-15.69 Y34.15 E0.0479
G1 X-17.06 Y32.5 E0.0756
G1 X-17.68 Y31.53 E0.0408
G1 X-18.4 Y30.09 E0.0569
G1 X-18.9 Y28.59 E0.0558
G1 X-19.18 Y26.9 E0.0609
G1 X-19.23 Y25.8 E0.0388
G1 X-19.23 Y23.45 E0.0831
G1 X-19.3 Y23.21 E0.009
G1 X-19.48 Y23.03 E0.009
G1 X-19.73 Y22.9 E0.0099
G1 X-19.74 Y21.45 E0.0512
G1 X-19.36 Y21.26 E0.0148
G1 X-19.23 Y20.92 E0.0128
G1 X-19.23 Y-24 E1.589
G1 X-19.19 Y-24.52 E0.0183
G1 X-19.02 Y-25.08 E0.0207
G1 X-18.54 Y-25.86 E0.0323
G1 X-17.89 Y-26.53 E0.0331
G1 X-16.72 Y-27.42 E0.052
G1 X-15.53 Y-28.07 E0.0478
G1 X-13.67 Y-28.87 E0.0716
G1 X-10.96 Y-29.71 E0.1005
G1 X-10.42 Y-29.91 E0.0202
G1 X-9.9 Y-30.25 E0.0223
G1 X-9.43 Y-30.74 E0.0239
G1 X-9.15 Y-31.43 E0.0263
G1 X-8.88 Y-32.75 E0.0475
G1 X-8.28 Y-35.15 E0.0876
G1 X-7.67 Y-36.82 E0.0628
G1 X-7.66 Y-37.11 E0.0103
G1 X-7.76 Y-37.4 E0.0109
G1 X-7.94 Y-37.57 E0.0086
G1 X-8.85 Y-37.84 E0.0337
G1 X-9.47 Y-38.18 E0.0251
G1 X-9.95 Y-38.58 E0.022
G1 X-10.33 Y-39.04 E0.0211
G1 X-10.59 Y-39.56 E0.0207
G1 X-10.74 Y-40.17 E0.0219
G1 X-10.63 Y-40.23 E0.0043
G1 X-4.3 Y-40.2 E0.2238
G1 X-4.4 Y-39.68 E0.019
G1 X-4.68 Y-39.02 E0.0251
G1 X-4.96 Y-38.66 E0.0162
G1 X-5.6 Y-38.06 E0.0311
G1 X-5.73 Y-37.73 E0.0125
G1 X-5.69 Y-37.5 E0.0084
G1 X-5.07 Y-36.18 E0.0514
G1 X-4.49 Y-34.33 E0.0686
G1 X-4.08 Y-32.52 E0.0655
G1 X-3.89 Y-32.03 E0.0188
G1 X-3.51 Y-31.58 E0.0207
G1 X-3.04 Y-31.25 E0.0203
G1 X-2.3 Y-30.99 E0.0277
G1 X-1.66 Y-30.94 E0.0228
G1 X1.69 Y-30.94 E0.1185
G1 X2.5 Y-31.04 E0.0288
G1 X3.13 Y-31.31 E0.0241
G1 X3.61 Y-31.68 E0.0214
G1 X3.9 Y-32.08 E0.0176
G1 X4.06 Y-32.48 E0.0153
G1 X4.51 Y-34.42 E0.0705
G1 X5.07 Y-36.19 E0.0657
G1 X5.7 Y-37.58 E0.0537
G1 X5.71 Y-37.74 E0.0057
G1 X5.64 Y-37.98 E0.0091
G1 X5.47 Y-38.2 E0.0096
G1 X4.9 Y-38.71 E0.0274
G1 X4.51 Y-39.36 E0.0266
G1 X4.37 Y-39.78 E0.0156
G1 X4.31 Y-40.11 E0.0119
G1 X4.39 Y-40.2 E0.0042
G1 X10.65 Y-40.22 E0.2216
G1 X10.73 Y-40.13 E0.0041
G1 X10.59 Y-39.58 E0.0203
G1 X10.33 Y-39.04 E0.0209
G1 X9.91 Y-38.54 E0.0233
G1 X9.48 Y-38.18 E0.0198
G1 X8.89 Y-37.86 E0.0236
G1 X8.09 Y-37.62 E0.0295
G1 X7.75 Y-37.43 E0.0138
G1 X7.61 Y-37.16 E0.0111
G1 X7.65 Y-36.84 E0.0112
G1 X8.31 Y-35.02 E0.0687
G1 X8.84 Y-32.91 E0.0768
G1 X9.16 Y-31.36 E0.0561
G1 X9.4 Y-30.8 E0.0214
G1 X9.84 Y-30.29 E0.0237
G1 X10.44 Y-29.9 E0.0254
G1 X10.97 Y-29.7 E0.0202
G1 X13.57 Y-28.93 E0.0957
G1 X15.47 Y-28.12 E0.0732
G1 X16.65 Y-27.45 E0.0479
G1 X17.86 Y-26.55 E0.0535
G1 X18.46 Y-25.94 E0.0303
G1 X18.86 Y-25.36 E0.0249
G1 X19.16 Y-24.62 E0.0281
G1 X19.22 Y-23.88 E0.0264
G1 X19.22 Y20.65 E1.5747
G1 X19.25 Y21.06 E0.0147
G1 X19.39 Y21.29 E0.0094
G1 X19.73 Y21.48 E0.0137
G1 X19.73 Y22.9 E0.0503
G1 X19.37 Y23.08 E0.0143
G1 X19.23 Y23.37 E0.0114
G1 X19.18 Y26.85 E0.1231
G1 X18.93 Y28.39 E0.0551
G1 X18.55 Y29.64 E0.0461
G1 X18.14 Y30.63 E0.0381
G1 X17.11 Y32.42 E0.0731
G1 X16.42 Y33.34 E0.0406
G1 X15.86 Y33.97 E0.0299
G1 X15.04 Y34.08 E0.0291
;
; 'Loop Path', 1.3 [feed mm/s], 37.4 [head mm/s]
G1 X14.6 Y33.84 E0 F15000
G1 X13.19 Y35.06 E0.0659 F2241.8
G1 X12.16 Y35.79 E0.0446
G1 X11.05 Y36.46 E0.0459
G1 X8.79 Y37.57 E0.0891
G1 X6.42 Y38.36 E0.0884
G1 X4.25 Y38.84 E0.0786
G1 X2.44 Y39.09 E0.0645
G1 X0.25 Y39.22 E0.0778
G1 X-2.01 Y39.13 E0.0798
G1 X-4.04 Y38.87 E0.0724
G1 X-6.38 Y38.37 E0.0848
G1 X-8.59 Y37.62 E0.0825
G1 X-9.95 Y37.04 E0.0522
G1 X-11.6 Y36.16 E0.0661
G1 X-13.13 Y35.1 E0.0658
G1 X-14.1 Y34.3 E0.0444
G1 X-15.58 Y32.78 E0.0751
G1 X-16.27 Y31.88 E0.0402
G1 X-17.24 Y30.2 E0.0688
G1 X-17.66 Y29.19 E0.0385
G1 X-18.09 Y27.64 E0.057
G1 X-18.22 Y25.91 E0.0614
G1 X-18.23 Y23.31 E0.0917
G1 X-18.38 Y22.8 E0.0188
G1 X-18.71 Y22.35 E0.0199
G1 X-18.74 Y22.08 E0.0095
G1 X-18.38 Y21.55 E0.0227
G1 X-18.23 Y20.67 E0.0315
G1 X-18.23 Y-23.72 E1.5699
G1 X-18.21 Y-24.27 E0.0195
G1 X-18.09 Y-24.68 E0.015
G1 X-17.68 Y-25.33 E0.0273
G1 X-16.79 Y-26.15 E0.0429
G1 X-16.05 Y-26.65 E0.0315
G1 X-14.41 Y-27.51 E0.0656
G1 X-12.41 Y-28.26 E0.0755
G1 X-10.56 Y-28.79 E0.068
G1 X-9.7 Y-29.16 E0.0331
G1 X-9.08 Y-29.63 E0.0275
G1 X-8.59 Y-30.21 E0.0268
G1 X-8.31 Y-30.75 E0.0216
G1 X-8.18 Y-31.18 E0.0159
G1 X-7.35 Y-34.75 E0.1295
G1 X-6.7 Y-36.56 E0.0683
G1 X-6.62 Y-37.04 E0.0171
G1 X-6.42 Y-36.78 E0.0119
G1 X-6 Y-35.79 E0.0377
G1 X-5.46 Y-34.07 E0.0638
G1 X-5.05 Y-32.26 E0.0659
G1 X-4.81 Y-31.63 E0.0237
G1 X-4.45 Y-31.11 E0.0225
G1 X-3.88 Y-30.6 E0.027
G1 X-3.11 Y-30.18 E0.0311
G1 X-2.13 Y-29.97 E0.0354
G1 X-1.75 Y-29.94 E0.0135
G1 X1.74 Y-29.94 E0.1235
G1 X2.55 Y-30.02 E0.0286
G1 X3.39 Y-30.31 E0.0314
G1 X4.05 Y-30.73 E0.0278
G1 X4.57 Y-31.27 E0.0266
G1 X4.87 Y-31.78 E0.0207
G1 X5.03 Y-32.23 E0.0172
G1 X5.46 Y-34.08 E0.0669
G1 X5.96 Y-35.71 E0.0603
G1 X6.37 Y-36.66 E0.0367
G1 X6.57 Y-37.02 E0.0147
G1 X6.6 Y-37.02 E0.0007
G1 X6.68 Y-36.57 E0.0163
G1 X7.34 Y-34.75 E0.0686
G1 X7.85 Y-32.75 E0.0731
G1 X8.18 Y-31.14 E0.0578
G1 X8.52 Y-30.3 E0.0323
G1 X9.03 Y-29.68 E0.0282
G1 X9.64 Y-29.2 E0.0275
G1 X10.44 Y-28.83 E0.0312
G1 X13.28 Y-27.95 E0.1052
G1 X14.41 Y-27.49 E0.0431
G1 X16.04 Y-26.65 E0.0648
G1 X16.77 Y-26.15 E0.0314
G1 X17.59 Y-25.42 E0.0388
G1 X17.99 Y-24.86 E0.0244
G1 X18.18 Y-24.37 E0.0186
G1 X18.22 Y-23.95 E0.0148
G1 X18.22 Y20.84 E1.5842
G1 X18.31 Y21.41 E0.0205
G1 X18.46 Y21.71 E0.0117
G1 X18.71 Y22.02 E0.014
G1 X18.74 Y22.27 E0.0089
G1 X18.36 Y22.81 E0.0232
G1 X18.23 Y23.36 E0.0201
G1 X18.19 Y26.64 E0.1162
G1 X18.06 Y27.63 E0.0352
G1 X17.64 Y29.27 E0.06
G1 X16.85 Y30.94 E0.0652
G1 X16.26 Y31.88 E0.0393
G1 X15.63 Y32.72 E0.0372
G1 X15.14 Y33.27 E0.0259
;
; 'Loop Path', 1.4 [feed mm/s], 40.0 [head mm/s]
G1 X13.88 Y33.13 E0 F15000
G1 X12.57 Y34.27 E0.0614 F2400
G1 X10.65 Y35.54 E0.0814
G1 X9.48 Y36.15 E0.0465
G1 X7.26 Y37.06 E0.0851
G1 X5.44 Y37.57 E0.0669
G1 X3.93 Y37.88 E0.0543
G1 X1.82 Y38.15 E0.0752
G1 X-0.55 Y38.2 E0.084
G1 X-2.54 Y38.07 E0.0707
G1 X-4.99 Y37.69 E0.0873
G1 X-7.04 Y37.11 E0.0755
G1 X-8.46 Y36.6 E0.0534
G1 X-10.6 Y35.57 E0.0841
G1 X-11.59 Y34.97 E0.0409
G1 X-13.39 Y33.59 E0.0802
G1 X-14.21 Y32.81 E0.0398
G1 X-15.41 Y31.36 E0.0667
G1 X-15.96 Y30.5 E0.0362
G1 X-16.65 Y29.03 E0.0572
G1 X-16.94 Y28.11 E0.0344
G1 X-17.21 Y26.62 E0.0535
G1 X-17.23 Y23.41 E0.1135
G1 X-17.29 Y22.92 E0.0174
G1 X-17.57 Y22.17 E0.0282
G1 X-17.29 Y21.51 E0.0254
G1 X-17.23 Y20.72 E0.0278
G1 X-17.23 Y-23.43 E1.5618
G1 X-17.22 Y-24.13 E0.0246
G1 X-17.05 Y-24.49 E0.0142
G1 X-16.62 Y-24.98 E0.023
G1 X-15.82 Y-25.61 E0.0361
G1 X-14.69 Y-26.27 E0.0461
G1 X-12.86 Y-27.05 E0.0706
G1 X-10.36 Y-27.8 E0.0924
G1 X-9.62 Y-28.07 E0.0275
G1 X-8.86 Y-28.52 E0.0312
G1 X-8.19 Y-29.12 E0.032
G1 X-7.67 Y-29.79 E0.0302
G1 X-7.35 Y-30.47 E0.0266
G1 X-7.19 Y-31 E0.0193
G1 X-6.58 Y-33.79 E0.1013
G1 X-6.46 Y-33.93 E0.0065
G1 X-6.02 Y-32.03 E0.0689
G1 X-5.68 Y-31.12 E0.0343
G1 X-5.17 Y-30.41 E0.031
G1 X-4.48 Y-29.79 E0.0328
G1 X-3.59 Y-29.3 E0.0359
G1 X-2.6 Y-29.01 E0.0366
G1 X-1.7 Y-28.94 E0.0321
G1 X1.76 Y-28.94 E0.1224
G1 X2.7 Y-29.03 E0.0332
G1 X3.6 Y-29.31 E0.0335
G1 X4.48 Y-29.79 E0.0354
G1 X5.16 Y-30.4 E0.0321
G1 X5.7 Y-31.18 E0.0337
G1 X6 Y-31.95 E0.0293
G1 X6.4 Y-33.73 E0.0646
G1 X6.52 Y-33.97 E0.0093
G1 X6.91 Y-32.37 E0.0582
G1 X7.22 Y-30.85 E0.0551
G1 X7.51 Y-30.07 E0.0294
G1 X7.99 Y-29.34 E0.0308
G1 X8.62 Y-28.71 E0.0316
G1 X9.36 Y-28.2 E0.0317
G1 X10.2 Y-27.85 E0.0325
G1 X12.9 Y-27.02 E0.0996
G1 X14.27 Y-26.47 E0.0525
G1 X15.57 Y-25.78 E0.0519
G1 X16.55 Y-25.05 E0.043
G1 X17.07 Y-24.45 E0.0283
G1 X17.22 Y-23.93 E0.0191
G1 X17.22 Y20.61 E1.5755
G1 X17.52 Y22.22 E0.0579
G1 X17.27 Y22.92 E0.0261
G1 X17.23 Y23.42 E0.018
G1 X17.19 Y26.56 E0.1108
G1 X17.07 Y27.48 E0.0328
G1 X16.67 Y28.98 E0.0551
G1 X15.98 Y30.44 E0.057
G1 X15.44 Y31.31 E0.0362
G1 X14.43 Y32.57 E0.0572
;
; 'Destring/Wipe/Jump Path', 0.0 [feed mm/s], 70.0 [head mm/s]
G1 X14.43 Y32.57 E0 F15000
G1 E-1.25 F900
G1 X14.43 Y32.57 E0 F4200
G1 X13.88 Y33.13 E0
G1 X12.57 Y34.27 E0
G1 X10.65 Y35.54 E0
G1 X9.8 Y35.98 E0
;
; 'Loop Path', 1.3 [feed mm/s], 37.4 [head mm/s]
G1 X8.73 Y-38.91 E0 F15000
G1 E1.25 F900
G1 X8.29 Y-38.72 E0.0168 F2241.8
G1 X7.58 Y-38.51 E0.0262
G1 X7.13 Y-38.22 E0.0191
G1 X6.8 Y-37.84 E0.0178
G1 X6.72 Y-37.84 E0.0028
G1 X6.57 Y-38.39 E0.0201
G1 X6.27 Y-38.82 E0.0186
G1 X5.98 Y-39.08 E0.0135
G1 X5.94 Y-39.21 E0.0049
G1 X8.75 Y-39.21 E0.0992
;
; 'Destring/Wipe/Jump Path', 0.0 [feed mm/s], 70.0 [head mm/s]
G1 X8.75 Y-39.21 E0 F15000
G1 E-1.25 F900
G1 X8.75 Y-39.21 E0 F4200
G1 X8.73 Y-38.91 E0
G1 X8.29 Y-38.72 E0
G1 X7.58 Y-38.51 E0
G1 X7.13 Y-38.22 E0
G1 X6.8 Y-37.84 E0
G1 X6.72 Y-37.84 E0
G1 X6.57 Y-38.39 E0
G1 X6.27 Y-38.82 E0
G1 X5.98 Y-39.08 E0
G1 X5.94 Y-39.21 E0
G1 X6.99 Y-39.21 E0
;
; 'Loop Path', 1.3 [feed mm/s], 37.4 [head mm/s]
G1 X-6.95 Y-37.97 E0 F15000
G1 E1.25 F900
G1 X-7.31 Y-38.36 E0.0187 F2241.8
G1 X-7.64 Y-38.53 E0.0131
G1 X-8.47 Y-38.77 E0.0308
G1 X-8.93 Y-39.03 E0.0188
G1 X-9.03 Y-39.13 E0.0049
G1 X-9.03 Y-39.21 E0.0026
G1 X-5.96 Y-39.21 E0.1087
G1 X-6 Y-39.06 E0.0054
G1 X-6.3 Y-38.78 E0.0145
G1 X-6.57 Y-38.38 E0.0169
G1 X-6.68 Y-38.04 E0.0127
;
; 'Destring/Wipe/Jump Path', 0.0 [feed mm/s], 70.0 [head mm/s]
G1 X-6.68 Y-38.04 E0 F15000
G1 E-1.25 F900
G1 X-6.68 Y-38.04 E0 F4200
G1 X-6.95 Y-37.97 E0
G1 X-7.31 Y-38.36 E0
G1 X-7.64 Y-38.53 E0
G1 X-8.47 Y-38.77 E0
G1 X-8.93 Y-39.03 E0
G1 X-9.03 Y-39.13 E0
G1 X-9.03 Y-39.21 E0
G1 X-6.55 Y-39.21 E0
;
; 'Perimeter Path', 0.5 [feed mm/s], 14.9 [head mm/s]
G1 X-27.37 Y-29.59 E0 F15000
G1 E1.25 F900
G1 X-27.49 Y-28.77 E0.0294 F897
G1 X-27.75 Y-28.65 E0.01
G1 X-27.91 Y-28.69 E0.0059
G1 X-27.88 Y-29.34 E0.023
G1 X-27.99 Y-29.66 E0.012
G1 X-28.14 Y-29.8 E0.0075
G1 X-28.53 Y-30.01 E0.0153
G1 X-28.75 Y-30.49 E0.0189
G1 X-28.84 Y-31.17 E0.0241
G1 X-28.75 Y-31.81 E0.0228
G1 X-28.55 Y-32.22 E0.0164
G1 X-28.35 Y-32.47 E0.0111
G1 X-28.04 Y-32.65 E0.0129
G1 X-27.74 Y-32.6 E0.0105
G1 X-27.46 Y-32.36 E0.0131
G1 X-27.23 Y-32.03 E0.014
G1 X-27.18 Y-31.81 E0.0082
G1 X-27.18 Y-31.26 E0.0195
G1 X-27.03 Y-30.98 E0.0111
G1 X-26.71 Y-30.82 E0.0126
G1 X-26.38 Y-30.76 E0.0121
G1 X-26.27 Y-30.57 E0.0075
G1 X-26.36 Y-30.15 E0.0152
G1 X-26.55 Y-29.77 E0.0153
G1 X-26.83 Y-29.36 E0.0174
G1 X-26.9 Y-29.28 E0.0038
;
; 'Crown Path', 0.6 [feed mm/s], 36.0 [head mm/s]
G1 X-27.4 Y-29.74 E0 F15000
G1 X-27.29 Y-30.05 E0.0058 F2162.5
G1 X-27.07 Y-30.27 E0.0054
G1 X-27.33 Y-30.17 E0.0048
G1 X-27.89 Y-30.68 E0.0134
G1 X-28.01 Y-31.2 E0.0095
G1 X-27.95 Y-31.66 E0.0082
;
; 'Destring/Wipe/Jump Path', 0.0 [feed mm/s], 70.0 [head mm/s]
G1 X-27.95 Y-31.66 E0 F15000
G1 E-1.25 F900
G1 X-27.95 Y-31.66 E0 F4200
G1 X-28.01 Y-31.2 E0
G1 X-27.89 Y-30.68 E0
G1 X-27.33 Y-30.17 E0
G1 X-27.07 Y-30.27 E0
G1 X-27.29 Y-30.05 E0
G1 X-27.4 Y-29.74 E0
;
; 'Perimeter Path', 0.5 [feed mm/s], 14.9 [head mm/s]
G1 X27.4 Y-29.56 E0 F15000
G1 E1.25 F900
G1 X27.46 Y-28.78 E0.0277 F897
G1 X26.89 Y-29.27 E0.0266
G1 X26.51 Y-29.82 E0.0236
G1 X26.3 Y-30.31 E0.019
G1 X26.27 Y-30.61 E0.0105
G1 X26.36 Y-30.74 E0.0057
G1 X26.83 Y-30.83 E0.0168
G1 X27.07 Y-31.03 E0.0111
G1 X27.14 Y-31.19 E0.0061
G1 X27.2 Y-31.98 E0.0282
G1 X27.49 Y-32.4 E0.0182
G1 X27.81 Y-32.63 E0.0136
G1 X28.08 Y-32.64 E0.0095
G1 X28.39 Y-32.43 E0.0135
G1 X28.68 Y-32 E0.0182
G1 X28.82 Y-31.43 E0.0207
G1 X28.82 Y-30.91 E0.0185
G1 X28.7 Y-30.33 E0.0209
G1 X28.5 Y-29.99 E0.0138
G1 X28.05 Y-29.75 E0.0181
G1 X27.92 Y-29.53 E0.0092
G1 X27.87 Y-29.24 E0.0103
G1 X27.9 Y-29 E0.0085
G1 X27.19 Y-29.43 E0.0293
;
; 'Destring/Wipe/Jump Path', 0.0 [feed mm/s], 70.0 [head mm/s]
G1 X27.19 Y-29.43 E0 F15000
G1 E-1.25 F900
G1 X27.19 Y-29.43 E0 F4200
G1 X27.4 Y-29.56 E0
G1 X27.46 Y-28.78 E0
G1 X26.89 Y-29.27 E0
G1 X26.51 Y-29.82 E0
G1 X26.3 Y-30.31 E0
G1 X26.27 Y-30.61 E0
G1 X26.36 Y-30.74 E0
G1 X26.83 Y-30.83 E0
G1 X27.07 Y-31.03 E0
G1 X27.14 Y-31.19 E0
G1 X27.2 Y-31.98 E0
G1 X27.23 Y-32.02 E0
;
; Post-layer lift
G1 X27.23 Y-32.02 Z4 E0 F210
; END_LAYER_OBJECT z=3.75
; BEGIN_LAYER_OBJECT z=4.00
; fan off
M107
;
; 'Support Interface Path', 1.4 [feed mm/s], 53.3 [head mm/s]
G1 X-26.49 Y-32.97 Z4 E0 F15000
G1 E1.25 F900
G1 X-26.3 Y-33.16 E0.007 F3200
;
; 'Destring/Wipe/Jump Path', 0.0 [feed mm/s], 74.8 [head mm/s]
G1 X-26.3 Y-33.16 E0 F15000
G1 E-1.25 F900
G1 X-26.3 Y-33.16 E0 F4486.5
G1 X-26.49 Y-32.97 E0
G1 X-26.3 Y-33.16 E0
; fan on
M106
;
; 'Perimeter Path', 0.5 [feed mm/s], 14.9 [head mm/s]
G1 X-27.27 Y-30.04 E0 F15000
G1 E1.25 F900
G1 X-27.41 Y-29.21 E0.0297 F897
G1 X-27.66 Y-29.11 E0.0096
G1 X-27.69 Y-29.43 E0.0114
G1 X-27.53 Y-30.1 E0.0245
G1 X-27.59 Y-30.39 E0.0107
G1 X-27.8 Y-30.59 E0.0102
G1 X-28.23 Y-30.68 E0.0155
G1 X-28.38 Y-30.89 E0.0093
G1 X-28.44 Y-31.34 E0.0158
G1 X-28.36 Y-31.78 E0.0159
G1 X-28.25 Y-31.99 E0.0086
G1 X-28 Y-32.15 E0.0104
G1 X-27.74 Y-32.07 E0.0097
G1 X-27.57 Y-31.87 E0.0091
G1 X-27.53 Y-31.37 E0.0177
G1 X-27.32 Y-31.04 E0.0135
G1 X-27.11 Y-30.92 E0.0088
G1 X-26.94 Y-30.9 E0.0057
G1 X-26.53 Y-30.98 E0.0151
G1 X-26.36 Y-30.94 E0.006
G1 X-26.28 Y-30.76 E0.0071
G1 X-26.4 Y-30.33 E0.0157
G1 X-26.74 Y-29.8 E0.0223
G1 X-26.81 Y-29.72 E0.0038
;
; 'Destring/Wipe/Jump Path', 0.0 [feed mm/s], 74.8 [head mm/s]
G1 X-26.81 Y-29.72 E0 F15000
G1 E-1.25 F900
G1 X-26.81 Y-29.72 E0 F4486.5
G1 X-27.27 Y-30.04 E0
G1 X-27.41 Y-29.21 E0
G1 X-27.66 Y-29.11 E0
G1 X-27.69 Y-29.43 E0
G1 X-27.53 Y-30.1 E0
G1 X-27.59 Y-30.39 E0
G1 X-27.8 Y-30.59 E0
G1 X-28.23 Y-30.68 E0
G1 X-28.38 Y-30.89 E0
G1 X-28.44 Y-31.34 E0
G1 X-28.36 Y-31.78 E0
G1 X-28.25 Y-31.99 E0
G1 X-28 Y-32.15 E0
G1 X-27.86 Y-32.1 E0
;
; 'Perimeter Path', 0.5 [feed mm/s], 14.9 [head mm/s]
G1 X27.17 Y-30.07 E0 F15000
G1 E1.25 F900
G1 X27.24 Y-29.31 E0.0269 F897
G1 X26.69 Y-29.84 E0.0269
G1 X26.32 Y-30.51 E0.0271
G1 X26.3 Y-30.87 E0.0128
G1 X26.46 Y-30.98 E0.007
G1 X27 Y-30.93 E0.0191
G1 X27.18 Y-30.96 E0.0066
G1 X27.4 Y-31.09 E0.0089
G1 X27.53 Y-31.32 E0.0093
G1 X27.56 Y-31.82 E0.0178
G1 X27.69 Y-32.03 E0.0087
G1 X27.93 Y-32.15 E0.0098
G1 X28.19 Y-32.05 E0.0099
G1 X28.38 Y-31.74 E0.0126
G1 X28.44 Y-31.28 E0.0163
G1 X28.36 Y-30.85 E0.0157
G1 X28.23 Y-30.71 E0.0069
G1 X27.79 Y-30.54 E0.0166
G1 X27.6 Y-30.35 E0.0095
G1 X27.53 Y-30.08 E0.0097
G1 X27.67 Y-29.47 E0.0223
G1 X27 Y-29.97 E0.0296
;
; 'Destring/Wipe/Jump Path', 0.0 [feed mm/s], 74.8 [head mm/s]
G1 X27 Y-29.97 E0 F15000
G1 E-1.25 F900
G1 X27 Y-29.97 E0 F4486.5
G1 X27.17 Y-30.07 E0
G1 X27.24 Y-29.31 E0
G1 X26.69 Y-29.84 E0
G1 X26.32 Y-30.51 E0
G1 X26.3 Y-30.87 E0
G1 X26.46 Y-30.98 E0
G1 X27 Y-30.93 E0
G1 X27.18 Y-30.96 E0
G1 X27.4 Y-31.09 E0
G1 X27.53 Y-31.32 E0
G1 X27.56 Y-31.82 E0
G1 X27.69 Y-32.03 E0
G1 X27.83 Y-32.1 E0
;
; 'Perimeter Path', 0.5 [feed mm/s], 14.9 [head mm/s]
G1 X15.36 Y33.69 E0 F15000
G1 E1.25 F900
G1 X15.28 Y34.51 E0.029 F897
G1 X13.79 Y35.82 E0.0703
G1 X12.63 Y36.64 E0.0501
G1 X11.31 Y37.42 E0.0542
G1 X9.15 Y38.46 E0.085
G1 X6.76 Y39.25 E0.0889
G1 X5 Y39.69 E0.0644
G1 X2.9 Y40.01 E0.0751
G1 X0.53 Y40.18 E0.0838
G1 X-1.78 Y40.13 E0.082
G1 X-4.03 Y39.87 E0.0801
G1 X-6.11 Y39.44 E0.0751
G1 X-7.79 Y38.95 E0.0619
G1 X-9.59 Y38.27 E0.0678
G1 X-11.47 Y37.34 E0.0742
G1 X-12.68 Y36.61 E0.0501
G1 X-14.59 Y35.16 E0.0846
G1 X-15.57 Y34.23 E0.0482
G1 X-16.41 Y33.27 E0.0448
G1 X-17.03 Y32.47 E0.0357
G1 X-18.13 Y30.56 E0.078
G1 X-18.54 Y29.55 E0.0385
G1 X-19.04 Y27.77 E0.0657
G1 X-19.19 Y25.93 E0.0651
G1 X-19.18 Y23.4 E0.0895
G1 X-19.26 Y23.15 E0.0094
G1 X-19.42 Y22.98 E0.0082
G1 X-19.69 Y22.88 E0.0101
G1 X-19.69 Y21.49 E0.0491
G1 X-19.36 Y21.29 E0.0137
G1 X-19.23 Y21.07 E0.0089
G1 X-19.19 Y20.79 E0.01
G1 X-19.19 Y-23.95 E1.5822
G1 X-19.14 Y-24.53 E0.0208
G1 X-19 Y-24.99 E0.0169
G1 X-18.51 Y-25.83 E0.0343
G1 X-17.87 Y-26.51 E0.0331
G1 X-16.54 Y-27.49 E0.0582
G1 X-15.64 Y-28 E0.0368
G1 X-13.66 Y-28.86 E0.0763
G1 X-12.38 Y-29.28 E0.0476
G1 X-10.44 Y-29.84 E0.0716
G1 X-9.73 Y-30.23 E0.0285
G1 X-9.23 Y-30.72 E0.0249
G1 X-8.9 Y-31.33 E0.0243
G1 X-8.43 Y-33.35 E0.0736
G1 X-7.86 Y-35.23 E0.0693
G1 X-7.36 Y-36.34 E0.043
G1 X-7.02 Y-36.9 E0.0232
G1 X-7.03 Y-37.22 E0.0116
G1 X-7.18 Y-37.45 E0.0096
G1 X-7.36 Y-37.56 E0.0076
G1 X-8.45 Y-37.71 E0.0389
G1 X-9.17 Y-37.99 E0.0271
G1 X-9.95 Y-38.53 E0.0337
G1 X-10.42 Y-39.1 E0.026
G1 X-10.68 Y-39.64 E0.0213
G1 X-10.81 Y-40.24 E0.0218
G1 X-4.44 Y-40.2 E0.2251
G1 X-4.46 Y-39.81 E0.0138
G1 X-4.66 Y-39.26 E0.0208
G1 X-4.98 Y-38.76 E0.0209
G1 X-5.38 Y-38.36 E0.0202
G1 X-6.11 Y-37.88 E0.0309
G1 X-6.31 Y-37.58 E0.0127
G1 X-6.31 Y-37.25 E0.0118
G1 X-5.85 Y-36.67 E0.0261
G1 X-5.42 Y-35.9 E0.0311
G1 X-4.85 Y-34.36 E0.0581
G1 X-4.35 Y-32.45 E0.07
G1 X-4.13 Y-31.94 E0.0194
G1 X-3.61 Y-31.42 E0.0259
G1 X-2.94 Y-31.09 E0.0267
G1 X-2.23 Y-30.94 E0.0256
G1 X-1.85 Y-30.92 E0.0133
G1 X1.89 Y-30.92 E0.1325
G1 X2.81 Y-31.04 E0.0327
G1 X3.53 Y-31.37 E0.0281
G1 X3.94 Y-31.72 E0.0191
G1 X4.2 Y-32.1 E0.0162
G1 X4.36 Y-32.49 E0.015
G1 X4.89 Y-34.51 E0.0739
G1 X5.41 Y-35.87 E0.0514
G1 X5.86 Y-36.69 E0.0331
G1 X6.26 Y-37.17 E0.0222
G1 X6.33 Y-37.44 E0.0096
G1 X6.24 Y-37.73 E0.0109
G1 X5.96 Y-37.97 E0.0132
G1 X5.32 Y-38.4 E0.0272
G1 X4.8 Y-38.99 E0.0278
G1 X4.47 Y-39.75 E0.0294
G1 X4.4 Y-40.2 E0.0161
G1 X10.71 Y-40.25 E0.223
G1 X10.81 Y-40.22 E0.0037
G1 X10.64 Y-39.53 E0.025
G1 X10.25 Y-38.84 E0.0281
G1 X9.62 Y-38.26 E0.0301
G1 X9.03 Y-37.92 E0.0242
G1 X8.37 Y-37.7 E0.0247
G1 X7.43 Y-37.57 E0.0336
G1 X7.21 Y-37.44 E0.009
G1 X7.07 Y-37.2 E0.0097
G1 X7.08 Y-36.85 E0.0124
G1 X7.76 Y-35.48 E0.054
G1 X8.43 Y-33.33 E0.0798
G1 X8.86 Y-31.48 E0.0672
G1 X9.12 Y-30.85 E0.024
G1 X9.67 Y-30.28 E0.0279
G1 X10.4 Y-29.85 E0.0302
G1 X12.33 Y-29.3 E0.071
G1 X13.77 Y-28.81 E0.0538
G1 X15.62 Y-28.01 E0.0711
G1 X16.63 Y-27.43 E0.0412
G1 X17.84 Y-26.53 E0.0535
G1 X18.45 Y-25.89 E0.031
G1 X18.75 Y-25.48 E0.0179
G1 X19.12 Y-24.63 E0.033
G1 X19.18 Y-23.92 E0.0253
G1 X19.18 Y20.82 E1.5822
G1 X19.29 Y21.18 E0.0135
G1 X19.47 Y21.36 E0.009
G1 X19.61 Y21.42 E0.0052
G1 X19.69 Y21.52 E0.0044
G1 X19.69 Y22.85 E0.0471
G1 X19.32 Y23.05 E0.0149
G1 X19.19 Y23.4 E0.013
G1 X19.18 Y25.88 E0.0878
G1 X19.13 Y26.88 E0.0353
G1 X18.82 Y28.67 E0.0643
G1 X18.5 Y29.68 E0.0374
G1 X18.1 Y30.62 E0.0364
G1 X17.26 Y32.14 E0.0614
G1 X16.43 Y33.28 E0.0496
G1 X15.83 Y33.95 E0.0318
G1 X15.02 Y34.05 E0.029
;
; 'Loop Path', 1.3 [feed mm/s], 37.4 [head mm/s]
G1 X14.57 Y33.81 E0 F15000
G1 X13.16 Y35.03 E0.0659 F2241.8
G1 X12.02 Y35.84 E0.0494
G1 X9.86 Y37.04 E0.0875
G1 X8.62 Y37.58 E0.0478
G1 X6.39 Y38.34 E0.0834
G1 X4.21 Y38.82 E0.0791
G1 X2.24 Y39.08 E0.0701
G1 X-0.06 Y39.19 E0.0816
G1 X-2.29 Y39.08 E0.079
G1 X-4.01 Y38.84 E0.0612
G1 X-6.37 Y38.35 E0.0852
G1 X-8.7 Y37.55 E0.0871
G1 X-9.92 Y37.01 E0.0473
G1 X-11.96 Y35.88 E0.0825
G1 X-13.06 Y35.12 E0.0473
G1 X-13.98 Y34.37 E0.0421
G1 X-15.55 Y32.75 E0.0796
G1 X-16.22 Y31.87 E0.0393
G1 X-16.78 Y30.98 E0.0372
G1 X-17.59 Y29.29 E0.0662
G1 X-18.05 Y27.6 E0.0619
G1 X-18.18 Y25.98 E0.0575
G1 X-18.18 Y23.3 E0.0949
G1 X-18.27 Y22.91 E0.0142
G1 X-18.41 Y22.62 E0.0111
G1 X-18.65 Y22.33 E0.0135
G1 X-18.69 Y22.14 E0.0069
G1 X-18.65 Y21.98 E0.0055
G1 X-18.29 Y21.45 E0.0227
G1 X-18.18 Y20.87 E0.0208
G1 X-18.19 Y-23.75 E1.5783
G1 X-18.16 Y-24.38 E0.022
G1 X-17.89 Y-24.99 E0.0237
G1 X-17.22 Y-25.77 E0.0363
G1 X-16 Y-26.66 E0.0533
G1 X-14.27 Y-27.53 E0.0686
G1 X-13.16 Y-27.97 E0.0422
G1 X-9.91 Y-28.97 E0.1202
G1 X-9.1 Y-29.45 E0.0336
G1 X-8.46 Y-30.08 E0.0317
G1 X-8.08 Y-30.69 E0.0253
G1 X-7.9 Y-31.22 E0.02
G1 X-7.4 Y-33.34 E0.0767
G1 X-6.93 Y-34.86 E0.0565
G1 X-6.6 Y-35.61 E0.029
G1 X-6.44 Y-35.72 E0.0068
G1 X-5.86 Y-34.23 E0.0568
G1 X-5.32 Y-32.21 E0.074
G1 X-5.02 Y-31.47 E0.028
G1 X-4.58 Y-30.94 E0.0245
G1 X-3.91 Y-30.43 E0.0298
G1 X-3.17 Y-30.12 E0.0285
G1 X-2.09 Y-29.93 E0.0386
G1 X1.84 Y-29.92 E0.1391
G1 X2.47 Y-29.95 E0.0222
G1 X3.12 Y-30.1 E0.0235
G1 X3.76 Y-30.35 E0.0243
G1 X4.4 Y-30.77 E0.0271
G1 X4.98 Y-31.41 E0.0306
G1 X5.3 Y-32.12 E0.0275
G1 X5.83 Y-34.15 E0.0742
G1 X6.33 Y-35.47 E0.0498
G1 X6.46 Y-35.72 E0.01
G1 X6.55 Y-35.71 E0.0031
G1 X6.97 Y-34.74 E0.0377
G1 X7.43 Y-33.21 E0.0562
G1 X7.9 Y-31.21 E0.0728
G1 X8.2 Y-30.44 E0.0292
G1 X8.74 Y-29.77 E0.0303
G1 X9.36 Y-29.27 E0.0282
G1 X10.13 Y-28.89 E0.0305
G1 X12.08 Y-28.33 E0.0718
G1 X14.29 Y-27.54 E0.0828
G1 X16.02 Y-26.64 E0.0693
G1 X16.75 Y-26.13 E0.0314
G1 X17.58 Y-25.37 E0.0398
G1 X17.92 Y-24.92 E0.0199
G1 X18.14 Y-24.36 E0.0212
G1 X18.18 Y-23.85 E0.0183
G1 X18.18 Y20.92 E1.5831
G1 X18.27 Y21.32 E0.0148
G1 X18.44 Y21.7 E0.0147
G1 X18.69 Y22.03 E0.0144
G1 X18.65 Y22.3 E0.0096
G1 X18.31 Y22.79 E0.0216
G1 X18.18 Y23.49 E0.0248
G1 X18.18 Y25.81 E0.082
G1 X18.14 Y26.77 E0.0342
G1 X17.85 Y28.41 E0.059
G1 X17.55 Y29.35 E0.0347
G1 X16.76 Y31.03 E0.0656
G1 X16.21 Y31.89 E0.0361
G1 X15.6 Y32.7 E0.036
G1 X15.12 Y33.24 E0.0257
;
; 'Loop Path', 1.4 [feed mm/s], 40.0 [head mm/s]
G1 X13.76 Y33.19 E0 F15000
G1 X12.58 Y34.23 E0.0556 F2400
G1 X11.4 Y35.05 E0.0509
G1 X9.46 Y36.12 E0.0784
G1 X8.07 Y36.73 E0.0538
G1 X6.07 Y37.39 E0.0744
G1 X3.77 Y37.89 E0.0831
G1 X1.63 Y38.13 E0.0761
G1 X-0.43 Y38.18 E0.0729
G1 X-2.52 Y38.04 E0.074
G1 X-4.92 Y37.67 E0.0862
G1 X-7.15 Y37.06 E0.0816
G1 X-9.13 Y36.28 E0.0753
G1 X-10.62 Y35.52 E0.0593
G1 X-11.99 Y34.67 E0.0571
G1 X-13.37 Y33.57 E0.0623
G1 X-14.26 Y32.69 E0.0442
G1 X-15.42 Y31.3 E0.0639
G1 X-16.29 Y29.76 E0.0626
G1 X-16.65 Y28.88 E0.0336
G1 X-17.06 Y27.42 E0.0536
G1 X-17.18 Y26.03 E0.0495
G1 X-17.18 Y23.24 E0.0988
G1 X-17.27 Y22.72 E0.0185
G1 X-17.48 Y22.22 E0.0191
G1 X-17.49 Y22.1 E0.0044
G1 X-17.25 Y21.44 E0.0248
G1 X-17.18 Y20.87 E0.0201
G1 X-17.18 Y-23.92 E1.5843
G1 X-17.15 Y-24.23 E0.011
G1 X-16.86 Y-24.69 E0.0192
G1 X-16.1 Y-25.38 E0.0363
G1 X-14.75 Y-26.21 E0.0561
G1 X-12.89 Y-27 E0.0715
G1 X-11.81 Y-27.37 E0.0404
G1 X-9.87 Y-27.93 E0.0715
G1 X-8.92 Y-28.36 E0.0368
G1 X-8.19 Y-28.92 E0.0325
G1 X-7.58 Y-29.58 E0.0317
G1 X-7.16 Y-30.3 E0.0294
G1 X-6.93 Y-30.97 E0.0252
G1 X-6.56 Y-32.57 E0.058
G1 X-6.51 Y-32.6 E0.0021
G1 X-6.45 Y-32.52 E0.0038
G1 X-6.16 Y-31.56 E0.0352
G1 X-5.8 Y-30.83 E0.0289
G1 X-5.23 Y-30.17 E0.031
G1 X-4.5 Y-29.61 E0.0323
G1 X-3.57 Y-29.18 E0.0364
G1 X-2.53 Y-28.96 E0.0373
G1 X-1.89 Y-28.92 E0.0228
G1 X1.96 Y-28.92 E0.1364
G1 X2.88 Y-29 E0.0326
G1 X3.79 Y-29.27 E0.0335
G1 X4.68 Y-29.73 E0.0356
G1 X5.37 Y-30.32 E0.0319
G1 X5.9 Y-31.01 E0.0307
G1 X6.23 Y-31.75 E0.0288
G1 X6.43 Y-32.47 E0.0263
G1 X6.53 Y-32.68 E0.0083
G1 X6.93 Y-30.94 E0.0629
G1 X7.28 Y-30.04 E0.0342
G1 X7.87 Y-29.23 E0.0354
G1 X8.56 Y-28.6 E0.033
G1 X9.53 Y-28.04 E0.0398
G1 X12.82 Y-27.03 E0.1215
G1 X13.89 Y-26.61 E0.0408
G1 X15.52 Y-25.79 E0.0646
G1 X16.52 Y-25.04 E0.0442
G1 X17.06 Y-24.42 E0.029
G1 X17.17 Y-23.89 E0.019
G1 X17.18 Y20.88 E1.5834
G1 X17.26 Y21.46 E0.021
G1 X17.53 Y22.13 E0.0252
G1 X17.26 Y22.79 E0.0255
G1 X17.18 Y23.53 E0.0263
G1 X17.16 Y26.6 E0.1085
G1 X16.89 Y28.11 E0.0542
G1 X16.62 Y28.97 E0.0317
G1 X15.89 Y30.53 E0.0609
G1 X15.34 Y31.39 E0.0362
G1 X14.32 Y32.63 E0.0571
;
; 'Destring/Wipe/Jump Path', 0.0 [feed mm/s], 74.8 [head mm/s]
G1 X14.32 Y32.63 E0 F15000
G1 E-1.25 F900
G1 X14.32 Y32.63 E0 F4486.5
G1 X13.76 Y33.19 E0
G1 X12.58 Y34.23 E0
G1 X11.4 Y35.05 E0
G1 X9.66 Y36.01 E0
;
; 'Loop Path', 1.3 [feed mm/s], 37.4 [head mm/s]
G1 X8.74 Y-38.91 E0 F15000
G1 E1.25 F900
G1 X8.2 Y-38.69 E0.0204 F2241.8
G1 X7.28 Y-38.56 E0.0328
G1 X6.97 Y-38.47 E0.0116
G1 X6.14 Y-39.05 E0.0359
G1 X6.12 Y-39.21 E0.0055
G1 X8.81 Y-39.21 E0.095
;
; 'Destring/Wipe/Jump Path', 0.0 [feed mm/s], 74.8 [head mm/s]
G1 X8.81 Y-39.21 E0 F15000
G1 E-1.25 F900
G1 X8.81 Y-39.21 E0 F4486.5
G1 X8.74 Y-38.91 E0
G1 X8.2 Y-38.69 E0
G1 X7.28 Y-38.56 E0
G1 X6.97 Y-38.47 E0
G1 X6.14 Y-39.05 E0
G1 X6.12 Y-39.21 E0
G1 X8.12 Y-39.21 E0
;
; 'Loop Path', 1.3 [feed mm/s], 37.4 [head mm/s]
G1 X-6.4 Y-38.88 E0 F15000
G1 E1.25 F900
G1 X-6.9 Y-38.51 E0.0221 F2241.8
G1 X-7.92 Y-38.64 E0.0362
G1 X-8.34 Y-38.73 E0.0152
G1 X-8.74 Y-38.91 E0.0157
G1 X-9.04 Y-39.11 E0.0128
G1 X-9.04 Y-39.21 E0.0036
G1 X-6.22 Y-39.21 E0.0997
;
; 'Destring/Wipe/Jump Path', 0.0 [feed mm/s], 74.8 [head mm/s]
G1 X-6.22 Y-39.21 E0 F15000
G1 E-1.25 F900
G1 X-6.22 Y-39.21 E0 F4486.5
G1 X-6.4 Y-38.88 E0
G1 X-6.9 Y-38.51 E0
G1 X-7.92 Y-38.64 E0
G1 X-8.34 Y-38.73 E0
G1 X-8.74 Y-38.91 E0
G1 X-9.04 Y-39.11 E0
G1 X-9.04 Y-39.21 E0
G1 X-7.03 Y-39.21 E0
;
; 'Crown Path', 1.4 [feed mm/s], 40.6 [head mm/s]
G1 X-6.49 Y-34.39 E0 F15000
G1 E1.25 F900
G1 X-6.48 Y-31.83 E0.0878 F2437.9
;
; 'Destring/Wipe/Jump Path', 0.0 [feed mm/s], 74.8 [head mm/s]
G1 X-6.48 Y-31.83 E0 F15000
G1 E-1.25 F900
G1 X-6.48 Y-31.83 E0 F4486.5
G1 X-6.49 Y-34.39 E0
;
; 'Crown Path', 1.4 [feed mm/s], 26.7 [head mm/s]
G1 X6.51 Y-34.42 E0 F15000
G1 E1.25 F900
G1 X6.5 Y-31.85 E0.1361 F1600
;
; 'Destring/Wipe/Jump Path', 0.0 [feed mm/s], 74.8 [head mm/s]
G1 X6.5 Y-31.85 E0 F15000
G1 E-1.25 F900
G1 X6.5 Y-31.85 E0 F4486.5
G1 X6.51 Y-34.42 E0
;
; Post-layer lift
G1 X6.51 Y-34.42 Z4.25 E0 F210
; END_LAYER_OBJECT z=4.00
; BEGIN_LAYER_OBJECT z=4.25
;
; 'Perimeter Path', 0.5 [feed mm/s], 14.9 [head mm/s]
G1 X-26.82 Y-30.49 Z4.25 E0 F15000
G1 E1.25 F900
G1 X-27.46 Y-29.88 E0.0316 F897
G1 X-27.3 Y-30.46 E0.0215
G1 X-27.09 Y-30.81 E0.0145
G1 X-26.55 Y-31.37 E0.0275
G1 X-26.51 Y-31.35 E0.0014
G1 X-26.3 Y-31.01 E0.0144
G1 X-26.38 Y-30.66 E0.0125
G1 X-26.64 Y-30.24 E0.0175
G1 X-26.99 Y-29.88 E0.0177
G1 X-26.96 Y-30.57 E0.0245
;
; 'Destring/Wipe/Jump Path', 0.0 [feed mm/s], 74.8 [head mm/s]
G1 X-26.96 Y-30.57 E0 F15000
G1 E-1.25 F900
G1 X-26.96 Y-30.57 E0 F4486.5
G1 X-26.82 Y-30.49 E0
G1 X-27.46 Y-29.88 E0
G1 X-27.3 Y-30.46 E0
G1 X-27.09 Y-30.81 E0
G1 X-26.55 Y-31.37 E0
G1 X-26.51 Y-31.35 E0
G1 X-26.3 Y-31.01 E0
G1 X-26.38 Y-30.66 E0
G1 X-26.64 Y-30.24 E0
G1 X-26.99 Y-29.88 E0
G1 X-26.97 Y-30.39 E0
;
; 'Perimeter Path', 0.5 [feed mm/s], 14.9 [head mm/s]
G1 X-5.62 Y-39.02 E0 F15000
G1 E1.25 F900
G1 X-5.72 Y-38.21 E0.0289 F897
G1 X-6.39 Y-37.85 E0.0268
G1 X-7.12 Y-37.66 E0.0269
G1 X-7.96 Y-37.65 E0.0294
G1 X-8.59 Y-37.78 E0.023
G1 X-9.14 Y-37.98 E0.0205
G1 X-9.7 Y-38.3 E0.023
G1 X-10.25 Y-38.81 E0.0263
G1 X-10.65 Y-39.44 E0.0265
G1 X-10.84 Y-40 E0.0209
G1 X-10.85 Y-40.28 E0.0101
G1 X-8.14 Y-40.21 E0.0957
G1 X-4.64 Y-40.21 E0.1239
G1 X-4.5 Y-40.15 E0.0053
G1 X-4.7 Y-39.41 E0.0273
G1 X-4.91 Y-39.01 E0.0158
G1 X-5.13 Y-38.73 E0.0127
G1 X-5.97 Y-38.67 E0.0298
;
; 'Loop Path', 1.3 [feed mm/s], 37.4 [head mm/s]
G1 X-6.56 Y-38.88 E0 F15000
G1 X-7.24 Y-38.66 E0.0252 F2241.8
G1 X-7.89 Y-38.66 E0.023
G1 X-8.38 Y-38.76 E0.0178
G1 X-8.98 Y-39.02 E0.0231
G1 X-9.07 Y-39.23 E0.0078
G1 X-6.39 Y-39.21 E0.0948
;
; 'Destring/Wipe/Jump Path', 0.0 [feed mm/s], 74.8 [head mm/s]
G1 X-6.39 Y-39.21 E0 F15000
G1 E-1.25 F900
G1 X-6.39 Y-39.21 E0 F4486.5
G1 X-6.56 Y-38.88 E0
G1 X-7.24 Y-38.66 E0
G1 X-7.89 Y-38.66 E0
G1 X-8.38 Y-38.76 E0
G1 X-8.98 Y-39.02 E0
G1 X-9.07 Y-39.23 E0
G1 X-6.81 Y-39.21 E0
;
; 'Perimeter Path', 0.5 [feed mm/s], 14.9 [head mm/s]
G1 X9.78 Y-39.12 E0 F15000
G1 E1.25 F900
G1 X9.69 Y-38.31 E0.0289 F897
G1 X9.12 Y-37.97 E0.0236
G1 X8.36 Y-37.71 E0.0282
G1 X7.51 Y-37.63 E0.0302
G1 X6.78 Y-37.73 E0.026
G1 X6.1 Y-37.98 E0.0258
G1 X5.46 Y-38.38 E0.0265
G1 X4.9 Y-39.01 E0.0299
G1 X4.66 Y-39.51 E0.0198
G1 X4.52 Y-40.06 E0.02
G1 X4.57 Y-40.21 E0.0054
G1 X8.19 Y-40.21 E0.1281
G1 X10.88 Y-40.28 E0.0952
G1 X10.73 Y-39.64 E0.0234
G1 X10.48 Y-39.12 E0.0203
G1 X10.26 Y-38.84 E0.0125
G1 X9.43 Y-38.77 E0.0297
;
; 'Loop Path', 1.3 [feed mm/s], 37.4 [head mm/s]
G1 X8.74 Y-38.9 E0 F15000
G1 X7.97 Y-38.66 E0.0288 F2241.8
G1 X7.32 Y-38.65 E0.0228
G1 X6.78 Y-38.78 E0.0198
G1 X6.28 Y-39.03 E0.0194
G1 X6.12 Y-39.2 E0.0086
G1 X8.88 Y-39.23 E0.0975
;
; 'Destring/Wipe/Jump Path', 0.0 [feed mm/s], 74.8 [head mm/s]
G1 X8.88 Y-39.23 E0 F15000
G1 E-1.25 F900
G1 X8.88 Y-39.23 E0 F4486.5
G1 X8.74 Y-38.9 E0
G1 X7.97 Y-38.66 E0
G1 X7.32 Y-38.65 E0
G1 X6.78 Y-38.78 E0
G1 X6.28 Y-39.03 E0
G1 X6.12 Y-39.2 E0
G1 X8.31 Y-39.22 E0
;
; 'Perimeter Path', 0.5 [feed mm/s], 14.9 [head mm/s]
G1 X26.96 Y-30.56 E0 F15000
G1 E1.25 F900
G1 X27.11 Y-29.78 E0.0282 F897
G1 X26.69 Y-30.18 E0.0206
G1 X26.38 Y-30.68 E0.0209
G1 X26.29 Y-31.04 E0.0131
G1 X26.57 Y-31.39 E0.0158
G1 X26.71 Y-31.17 E0.0091
G1 X27.1 Y-30.8 E0.0191
G1 X27.31 Y-30.43 E0.0148
G1 X27.44 Y-30.01 E0.0156
G1 X26.8 Y-30.46 E0.0276
;
; 'Destring/Wipe/Jump Path', 0.0 [feed mm/s], 74.8 [head mm/s]
G1 X26.8 Y-30.46 E0 F15000
G1 E-1.25 F900
G1 X26.8 Y-30.46 E0 F4486.5
G1 X26.96 Y-30.56 E0
G1 X27.11 Y-29.78 E0
G1 X26.69 Y-30.18 E0
G1 X26.38 Y-30.68 E0
G1 X26.29 Y-31.04 E0
G1 X26.57 Y-31.39 E0
G1 X26.71 Y-31.17 E0
G1 X27.1 Y-30.8 E0
G1 X27.31 Y-30.43 E0
G1 X27.44 Y-30.01 E0
G1 X26.99 Y-30.33 E0
;
; 'Perimeter Path', 0.5 [feed mm/s], 14.9 [head mm/s]
G1 X15.25 Y33.75 E0 F15000
G1 E1.25 F900
G1 X15.16 Y34.57 E0.0289 F897
G1 X13.66 Y35.87 E0.0704
G1 X12.63 Y36.61 E0.0449
G1 X10.73 Y37.7 E0.0774
G1 X9.01 Y38.47 E0.0668
G1 X7.24 Y39.09 E0.0663
G1 X5.25 Y39.61 E0.0726
G1 X3.28 Y39.94 E0.0706
G1 X1.18 Y40.13 E0.0747
G1 X-1.27 Y40.13 E0.0866
G1 X-3.66 Y39.88 E0.0848
G1 X-5.27 Y39.59 E0.058
G1 X-7.63 Y38.96 E0.0864
G1 X-9.06 Y38.45 E0.0538
G1 X-10.51 Y37.79 E0.0563
G1 X-12.65 Y36.58 E0.087
G1 X-14.11 Y35.54 E0.0633
G1 X-15.47 Y34.28 E0.0657
G1 X-16.3 Y33.36 E0.0437
G1 X-17.01 Y32.43 E0.0414
G1 X-17.77 Y31.18 E0.0516
G1 X-18.46 Y29.65 E0.0595
G1 X-18.79 Y28.56 E0.0401
G1 X-19.09 Y26.8 E0.0632
G1 X-19.14 Y25.86 E0.0332
G1 X-19.13 Y23.51 E0.0833
G1 X-19.23 Y23.15 E0.0132
G1 X-19.33 Y23.03 E0.0054
G1 X-19.64 Y22.84 E0.013
G1 X-19.64 Y21.53 E0.0461
G1 X-19.59 Y21.43 E0.0043
G1 X-19.34 Y21.28 E0.0101
G1 X-19.14 Y20.92 E0.0144
G1 X-19.13 Y20.71 E0.0076
G1 X-19.13 Y-23.9 E1.5776
G1 X-19.09 Y-24.58 E0.0244
G1 X-18.76 Y-25.39 E0.0307
G1 X-18.36 Y-25.94 E0.0241
G1 X-17.26 Y-26.97 E0.0531
G1 X-16.41 Y-27.53 E0.0362
G1 X-14.66 Y-28.43 E0.0698
G1 X-13.38 Y-28.93 E0.0485
G1 X-12.25 Y-29.3 E0.0418
G1 X-10.19 Y-29.88 E0.0758
G1 X-9.45 Y-30.29 E0.03
G1 X-8.97 Y-30.74 E0.023
G1 X-8.58 Y-31.36 E0.0261
G1 X-7.99 Y-33.5 E0.0786
G1 X-7.46 Y-34.91 E0.0533
G1 X-7.03 Y-35.63 E0.0294
G1 X-6.74 Y-35.93 E0.0148
G1 X-6.47 Y-36.03 E0.0102
G1 X-6.15 Y-35.84 E0.0134
G1 X-5.76 Y-35.32 E0.0229
G1 X-5.32 Y-34.39 E0.0362
G1 X-4.71 Y-32.47 E0.0714
G1 X-4.48 Y-31.93 E0.0209
G1 X-3.89 Y-31.37 E0.0287
G1 X-3.15 Y-31.04 E0.0285
G1 X-2.55 Y-30.92 E0.0215
G1 X-2.05 Y-30.9 E0.0178
G1 X2.09 Y-30.9 E0.1465
G1 X2.74 Y-30.95 E0.0231
G1 X3.49 Y-31.17 E0.0275
G1 X4.11 Y-31.55 E0.0258
G1 X4.5 Y-31.99 E0.0207
G1 X4.68 Y-32.39 E0.0155
G1 X5.32 Y-34.4 E0.0747
G1 X5.78 Y-35.35 E0.0373
G1 X6.16 Y-35.86 E0.0225
G1 X6.49 Y-36.03 E0.0133
G1 X6.74 Y-35.93 E0.0098
G1 X7.07 Y-35.57 E0.017
G1 X7.49 Y-34.85 E0.0296
G1 X7.95 Y-33.62 E0.0462
G1 X8.54 Y-31.51 E0.0777
G1 X8.83 Y-30.89 E0.0242
G1 X9.45 Y-30.28 E0.0306
G1 X10.22 Y-29.87 E0.0308
G1 X12.23 Y-29.31 E0.074
G1 X13.5 Y-28.89 E0.0474
G1 X15.04 Y-28.27 E0.0585
G1 X16.56 Y-27.46 E0.061
G1 X17.82 Y-26.51 E0.0559
G1 X18.35 Y-25.97 E0.0265
G1 X18.72 Y-25.46 E0.0224
G1 X18.95 Y-24.98 E0.0188
G1 X19.14 Y-23.92 E0.0382
G1 X19.13 Y20.74 E1.5794
G1 X19.15 Y21 E0.0091
G1 X19.29 Y21.22 E0.0094
G1 X19.61 Y21.43 E0.0137
G1 X19.64 Y21.57 E0.0049
G1 X19.64 Y22.81 E0.0441
G1 X19.57 Y22.9 E0.004
G1 X19.31 Y23.06 E0.0107
G1 X19.13 Y23.46 E0.0156
G1 X19.14 Y25.82 E0.0834
G1 X19.08 Y26.95 E0.0399
G1 X18.78 Y28.63 E0.0605
G1 X18.45 Y29.68 E0.0389
G1 X18.02 Y30.69 E0.0388
G1 X16.98 Y32.47 E0.073
G1 X16.31 Y33.34 E0.0388
G1 X15.71 Y34.01 E0.0316
G1 X14.9 Y34.11 E0.0291
;
; 'Loop Path', 1.3 [feed mm/s], 37.4 [head mm/s]
G1 X14.45 Y33.87 E0 F15000
G1 X13.04 Y35.09 E0.0659 F2241.8
G1 X12 Y35.81 E0.045
G1 X9.83 Y37.02 E0.0875
G1 X8.59 Y37.55 E0.0478
G1 X6.6 Y38.22 E0.0743
G1 X4.89 Y38.64 E0.0623
G1 X2.45 Y39.03 E0.0875
G1 X0.22 Y39.15 E0.0789
G1 X-2.11 Y39.05 E0.0825
G1 X-3.83 Y38.84 E0.0613
G1 X-6.21 Y38.35 E0.086
G1 X-8.54 Y37.57 E0.087
G1 X-9.89 Y36.98 E0.0521
G1 X-12.04 Y35.78 E0.0871
G1 X-13.08 Y35.06 E0.0447
G1 X-13.96 Y34.34 E0.04
G1 X-15.52 Y32.72 E0.0796
G1 X-16.2 Y31.81 E0.0403
G1 X-17.12 Y30.24 E0.0642
G1 X-17.54 Y29.24 E0.0386
G1 X-17.86 Y28.15 E0.0402
G1 X-18.12 Y26.63 E0.0545
G1 X-18.13 Y23.54 E0.1091
G1 X-18.22 Y23 E0.0196
G1 X-18.39 Y22.62 E0.0148
G1 X-18.63 Y22.31 E0.0137
G1 X-18.64 Y22.01 E0.0108
G1 X-18.25 Y21.45 E0.0239
G1 X-18.13 Y20.77 E0.0247
G1 X-18.14 Y-23.79 E1.5758
G1 X-18.11 Y-24.33 E0.0191
G1 X-17.86 Y-24.95 E0.0235
G1 X-17.26 Y-25.66 E0.0332
G1 X-16.64 Y-26.18 E0.0285
G1 X-15.22 Y-27.06 E0.0592
G1 X-14.13 Y-27.57 E0.0424
G1 X-12.16 Y-28.28 E0.074
G1 X-9.85 Y-28.94 E0.0851
G1 X-9.1 Y-29.32 E0.0299
G1 X-8.42 Y-29.85 E0.0305
G1 X-7.87 Y-30.53 E0.0309
G1 X-7.56 Y-31.28 E0.0284
G1 X-6.98 Y-33.38 E0.077
G1 X-6.6 Y-34.38 E0.0379
G1 X-6.46 Y-34.47 E0.0059
G1 X-6.23 Y-33.96 E0.0197
G1 X-5.63 Y-32.07 E0.07
G1 X-5.3 Y-31.36 E0.0278
G1 X-4.79 Y-30.82 E0.0262
G1 X-4.25 Y-30.43 E0.0236
G1 X-3.36 Y-30.05 E0.0342
G1 X-2.16 Y-29.9 E0.0429
G1 X2.05 Y-29.9 E0.1488
G1 X2.88 Y-29.95 E0.0293
G1 X3.76 Y-30.2 E0.0325
G1 X4.47 Y-30.57 E0.0282
G1 X4.94 Y-30.95 E0.0214
G1 X5.37 Y-31.49 E0.0244
G1 X5.61 Y-32 E0.0199
G1 X6.24 Y-34.01 E0.0746
G1 X6.48 Y-34.5 E0.0194
G1 X6.61 Y-34.34 E0.0072
G1 X7 Y-33.32 E0.0389
G1 X7.62 Y-31.11 E0.0812
G1 X8.02 Y-30.31 E0.0316
G1 X8.57 Y-29.71 E0.0287
G1 X9.23 Y-29.24 E0.0287
G1 X9.9 Y-28.92 E0.0261
G1 X12.06 Y-28.31 E0.0795
G1 X14.16 Y-27.57 E0.0786
G1 X15.89 Y-26.68 E0.0689
G1 X16.78 Y-26.09 E0.0377
G1 X17.52 Y-25.4 E0.036
G1 X17.89 Y-24.89 E0.0223
G1 X18.11 Y-24.31 E0.0217
G1 X18.14 Y-23.92 E0.0139
G1 X18.13 Y20.85 E1.5834
G1 X18.18 Y21.26 E0.0146
G1 X18.34 Y21.63 E0.0142
G1 X18.63 Y21.99 E0.0164
G1 X18.63 Y22.3 E0.011
G1 X18.25 Y22.89 E0.0247
G1 X18.13 Y23.46 E0.0205
G1 X18.13 Y26.36 E0.1028
G1 X18 Y27.51 E0.0409
G1 X17.56 Y29.21 E0.0622
G1 X17.16 Y30.19 E0.0373
G1 X16.18 Y31.86 E0.0684
G1 X15.52 Y32.73 E0.0387
G1 X15 Y33.31 E0.0274
;
; 'Loop Path', 1.4 [feed mm/s], 40.0 [head mm/s]
G1 X13.74 Y33.16 E0 F15000
G1 X12.42 Y34.3 E0.0614 F2400
G1 X11.48 Y34.96 E0.0405
G1 X9.43 Y36.1 E0.0829
G1 X8.06 Y36.68 E0.0527
G1 X5.91 Y37.4 E0.0803
G1 X3.63 Y37.87 E0.0825
G1 X1.6 Y38.1 E0.0721
G1 X-0.55 Y38.14 E0.076
G1 X-2.7 Y38 E0.0764
G1 X-4.82 Y37.65 E0.0758
G1 X-6.99 Y37.06 E0.0796
G1 X-8.7 Y36.44 E0.0644
G1 X-10.39 Y35.61 E0.0666
G1 X-11.75 Y34.77 E0.0564
G1 X-13.25 Y33.62 E0.0668
G1 X-14.07 Y32.85 E0.0398
G1 X-15.35 Y31.3 E0.0711
G1 X-15.89 Y30.43 E0.0364
G1 X-16.57 Y28.98 E0.0566
G1 X-16.83 Y28.15 E0.0307
G1 X-17.12 Y26.62 E0.0549
G1 X-17.13 Y23.49 E0.111
G1 X-17.24 Y22.75 E0.0264
G1 X-17.47 Y22.2 E0.0209
G1 X-17.47 Y22.13 E0.0025
G1 X-17.18 Y21.37 E0.0288
G1 X-17.13 Y20.91 E0.0162
G1 X-17.13 Y-23.68 E1.5773
G1 X-17.12 Y-24.14 E0.016
G1 X-16.98 Y-24.44 E0.0119
G1 X-16.48 Y-25.03 E0.0273
G1 X-15.45 Y-25.79 E0.0453
G1 X-13.98 Y-26.55 E0.0584
G1 X-12.39 Y-27.16 E0.0603
G1 X-9.97 Y-27.86 E0.0891
G1 X-9.21 Y-28.13 E0.0286
G1 X-8.39 Y-28.59 E0.0332
G1 X-7.69 Y-29.17 E0.0321
G1 X-7.11 Y-29.87 E0.0324
G1 X-6.81 Y-30.42 E0.0222
G1 X-6.46 Y-31.44 E0.0378
G1 X-6.21 Y-30.93 E0.0201
G1 X-5.82 Y-30.43 E0.0221
G1 X-5.36 Y-29.99 E0.0228
G1 X-4.72 Y-29.54 E0.0277
G1 X-3.73 Y-29.12 E0.0379
G1 X-2.58 Y-28.9 E0.0414
G1 X0.2 Y-28.93 E0.0985
G1 X2.22 Y-28.89 E0.0715
G1 X3.11 Y-28.97 E0.0315
G1 X4.2 Y-29.29 E0.0402
G1 X5.03 Y-29.74 E0.0332
G1 X5.6 Y-30.2 E0.0262
G1 X6.06 Y-30.72 E0.0243
G1 X6.43 Y-31.38 E0.0267
G1 X6.48 Y-31.38 E0.0016
G1 X6.84 Y-30.33 E0.0394
G1 X7.32 Y-29.58 E0.0316
G1 X7.89 Y-28.98 E0.0289
G1 X8.66 Y-28.41 E0.034
G1 X9.58 Y-27.97 E0.0361
G1 X11.68 Y-27.39 E0.077
G1 X13.77 Y-26.65 E0.0784
G1 X15.39 Y-25.81 E0.0645
G1 X16.15 Y-25.3 E0.0325
G1 X16.79 Y-24.72 E0.0307
G1 X17.11 Y-24.2 E0.0215
G1 X17.13 Y-23.9 E0.0106
G1 X17.13 Y20.73 E1.5786
G1 X17.16 Y21.25 E0.0184
G1 X17.26 Y21.67 E0.0152
G1 X17.49 Y22.17 E0.0192
G1 X17.2 Y22.88 E0.0273
G1 X17.13 Y23.5 E0.0221
G1 X17.13 Y25.9 E0.0848
G1 X17.02 Y27.4 E0.0532
G1 X16.59 Y28.94 E0.0564
G1 X16.23 Y29.8 E0.0333
G1 X15.39 Y31.25 E0.0593
G1 X14.78 Y32.06 E0.0356
G1 X14.29 Y32.6 E0.026
;
; 'Destring/Wipe/Jump Path', 0.0 [feed mm/s], 74.8 [head mm/s]
G1 X14.29 Y32.6 E0 F15000
G1 E-1.25 F900
G1 X14.29 Y32.6 E0 F4486.5
G1 X13.74 Y33.16 E0
G1 X12.42 Y34.3 E0
G1 X11.48 Y34.96 E0
G1 X9.63 Y35.99 E0
;
; Post-layer lift
G1 X9.63 Y35.99 Z4.5 E0 F210
; END_LAYER_OBJECT z=4.25
; BEGIN_LAYER_OBJECT z=4.50
;
; 'Perimeter Path', 0.5 [feed mm/s], 14.9 [head mm/s]
G1 X-27.21 Y-30.49 Z4.5 E0 F15000
G1 E1.25 F900
G1 X-27.19 Y-30.59 E0.0036 F897
G1 X-27.02 Y-30.95 E0.0143
G1 X-26.8 Y-31.27 E0.0137
G1 X-26.67 Y-31.65 E0.0142
G1 X-26.52 Y-31.69 E0.0056
G1 X-26.41 Y-31.61 E0.0048
G1 X-26.32 Y-31.17 E0.016
G1 X-26.48 Y-30.77 E0.0153
G1 X-26.86 Y-30.35 E0.02
G1 X-26.71 Y-31.09 E0.0267
;
; 'Destring/Wipe/Jump Path', 0.0 [feed mm/s], 74.8 [head mm/s]
G1 X-26.71 Y-31.09 E0 F15000
G1 E-1.25 F900
G1 X-26.71 Y-31.09 E0 F4486.5
G1 X-27.21 Y-30.49 E0
G1 X-27.19 Y-30.59 E0
G1 X-27.02 Y-30.95 E0
G1 X-26.8 Y-31.27 E0
G1 X-26.67 Y-31.65 E0
G1 X-26.52 Y-31.69 E0
G1 X-26.41 Y-31.61 E0
G1 X-26.32 Y-31.17 E0
G1 X-26.48 Y-30.77 E0
G1 X-26.86 Y-30.35 E0
G1 X-26.71 Y-31.09 E0
;
; 'Perimeter Path', 0.5 [feed mm/s], 14.9 [head mm/s]
G1 X-5.71 Y-39.03 E0 F15000
G1 E1.25 F900
G1 X-5.88 Y-38.19 E0.0302 F897
G1 X-6.57 Y-37.86 E0.0272
G1 X-7.33 Y-37.69 E0.0275
G1 X-8.2 Y-37.71 E0.0308
G1 X-9.08 Y-37.95 E0.0321
G1 X-9.68 Y-38.28 E0.0244
G1 X-10.12 Y-38.63 E0.0199
G1 X-10.54 Y-39.15 E0.0237
G1 X-10.79 Y-39.67 E0.0203
G1 X-10.92 Y-40.17 E0.0181
G1 X-10.86 Y-40.31 E0.0053
G1 X-7.56 Y-40.22 E0.1169
G1 X-4.64 Y-40.21 E0.1034
G1 X-4.68 Y-39.82 E0.0137
G1 X-4.88 Y-39.28 E0.0205
G1 X-5.28 Y-38.7 E0.0249
G1 X-6.11 Y-38.74 E0.0291
;
; 'Loop Path', 1.3 [feed mm/s], 37.4 [head mm/s]
G1 X-6.74 Y-38.88 E0 F15000
G1 X-7.34 Y-38.69 E0.0224 F2241.8
G1 X-8.07 Y-38.7 E0.0259
G1 X-8.71 Y-38.89 E0.0234
G1 X-9.09 Y-39.1 E0.0156
G1 X-9.26 Y-39.25 E0.0079
G1 X-9.13 Y-39.21 E0.005
G1 X-9.08 Y-39.24 E0.0019
G1 X-6.55 Y-39.21 E0.0894
;
; 'Destring/Wipe/Jump Path', 0.0 [feed mm/s], 74.8 [head mm/s]
G1 X-6.55 Y-39.21 E0 F15000
G1 E-1.25 F900
G1 X-6.55 Y-39.21 E0 F4486.5
G1 X-6.74 Y-38.88 E0
G1 X-7.34 Y-38.69 E0
G1 X-8.07 Y-38.7 E0
G1 X-8.71 Y-38.89 E0
G1 X-9.09 Y-39.1 E0
G1 X-9.26 Y-39.25 E0
G1 X-9.13 Y-39.21 E0
G1 X-9.08 Y-39.24 E0
G1 X-6.97 Y-39.21 E0
;
; 'Perimeter Path', 0.5 [feed mm/s], 14.9 [head mm/s]
G1 X9.87 Y-39.19 E0 F15000
G1 E1.25 F900
G1 X9.8 Y-38.38 E0.029 F897
G1 X9.13 Y-37.97 E0.0277
G1 X8.23 Y-37.71 E0.033
G1 X7.39 Y-37.68 E0.0299
G1 X6.59 Y-37.85 E0.0288
G1 X5.88 Y-38.19 E0.0279
G1 X5.5 Y-38.47 E0.0168
G1 X5.04 Y-38.98 E0.0243
G1 X4.77 Y-39.51 E0.0208
G1 X4.62 Y-40.15 E0.0232
G1 X4.74 Y-40.21 E0.005
G1 X7.62 Y-40.21 E0.1016
G1 X10.9 Y-40.31 E0.116
G1 X10.89 Y-40.01 E0.0106
G1 X10.74 Y-39.53 E0.0176
G1 X10.37 Y-38.92 E0.0255
G1 X9.52 Y-38.83 E0.0299
;
; 'Loop Path', 1.3 [feed mm/s], 37.4 [head mm/s]
G1 X8.74 Y-38.91 E0 F15000
G1 X8.07 Y-38.7 E0.025 F2241.8
G1 X7.39 Y-38.69 E0.0238
G1 X6.86 Y-38.82 E0.0194
G1 X6.36 Y-39.07 E0.0199
G1 X6.3 Y-39.2 E0.0049
G1 X8.93 Y-39.25 E0.0928
;
; 'Crown Path', 0.6 [feed mm/s], 36.0 [head mm/s]
G1 X8.42 Y-39.02 E0 F15000
G1 X9.12 Y-39.2 E0.0127 F2159.7
G1 X9.36 Y-39.36 E0.0052
G1 X9.54 Y-39.36 E0.0032
G1 X10.21 Y-39.75 E0.0136
;
; 'Destring/Wipe/Jump Path', 0.0 [feed mm/s], 74.8 [head mm/s]
G1 X10.21 Y-39.75 E0 F15000
G1 E-1.25 F900
G1 X10.21 Y-39.75 E0 F4486.5
G1 X8.42 Y-39.02 E0
G1 X9.12 Y-39.2 E0
G1 X9.36 Y-39.36 E0
G1 X9.54 Y-39.36 E0
G1 X10.21 Y-39.75 E0
;
; 'Perimeter Path', 0.5 [feed mm/s], 14.9 [head mm/s]
G1 X26.71 Y-31.09 E0 F15000
G1 E1.25 F900
G1 X26.87 Y-30.34 E0.0273 F897
G1 X26.45 Y-30.82 E0.0225
G1 X26.31 Y-31.21 E0.0148
G1 X26.44 Y-31.66 E0.0166
G1 X26.6 Y-31.69 E0.0057
G1 X26.69 Y-31.61 E0.0041
G1 X26.82 Y-31.23 E0.0143
G1 X27.01 Y-30.99 E0.0109
G1 X27.2 Y-30.52 E0.018
G1 X27.2 Y-30.51 E0.0003
;
; 'Destring/Wipe/Jump Path', 0.0 [feed mm/s], 74.8 [head mm/s]
G1 X27.2 Y-30.51 E0 F15000
G1 E-1.25 F900
G1 X27.2 Y-30.51 E0 F4486.5
G1 X26.71 Y-31.09 E0
G1 X26.87 Y-30.34 E0
G1 X26.45 Y-30.82 E0
G1 X26.31 Y-31.21 E0
G1 X26.44 Y-31.66 E0
G1 X26.6 Y-31.69 E0
G1 X26.69 Y-31.61 E0
G1 X26.82 Y-31.23 E0
G1 X27.01 Y-30.99 E0
G1 X27.2 Y-30.52 E0
G1 X27.2 Y-30.51 E0
;
; 'Perimeter Path', 0.5 [feed mm/s], 14.9 [head mm/s]
G1 X15.22 Y33.72 E0 F15000
G1 E1.25 F900
G1 X15.13 Y34.54 E0.0289 F897
G1 X13.63 Y35.84 E0.0703
G1 X12.49 Y36.64 E0.0493
G1 X11.14 Y37.43 E0.0552
G1 X8.96 Y38.44 E0.085
G1 X7.39 Y38.99 E0.059
G1 X5.07 Y39.6 E0.0848
G1 X3.1 Y39.93 E0.0707
G1 X0.83 Y40.11 E0.0805
G1 X-1.69 Y40.05 E0.0891
G1 X-3.7 Y39.84 E0.0714
G1 X-6.24 Y39.33 E0.0916
G1 X-7.6 Y38.93 E0.0502
G1 X-10.05 Y37.98 E0.0929
G1 X-11.4 Y37.29 E0.0537
G1 X-12.88 Y36.39 E0.0613
G1 X-14.54 Y35.11 E0.074
G1 X-15.53 Y34.16 E0.0486
G1 X-16.89 Y32.51 E0.0756
G1 X-17.57 Y31.44 E0.045
G1 X-18.11 Y30.36 E0.0425
G1 X-18.72 Y28.67 E0.0638
G1 X-18.94 Y27.66 E0.0364
G1 X-19.08 Y26 E0.0588
G1 X-19.08 Y23.46 E0.0899
G1 X-19.16 Y23.23 E0.0085
G1 X-19.33 Y23.03 E0.0096
G1 X-19.55 Y22.9 E0.0088
G1 X-19.6 Y22.78 E0.0046
G1 X-19.59 Y21.43 E0.0476
G1 X-19.21 Y21.23 E0.0153
G1 X-19.08 Y20.91 E0.0123
G1 X-19.08 Y-24.05 E1.59
G1 X-19.04 Y-24.54 E0.0175
G1 X-18.81 Y-25.19 E0.0242
G1 X-18.35 Y-25.9 E0.0302
G1 X-17.72 Y-26.54 E0.0316
G1 X-16.4 Y-27.53 E0.0586
G1 X-14.63 Y-28.41 E0.0696
G1 X-13.36 Y-28.91 E0.0485
G1 X-12.12 Y-29.32 E0.0461
G1 X-9.93 Y-29.92 E0.0804
G1 X-9.14 Y-30.34 E0.0314
G1 X-8.53 Y-30.87 E0.0288
G1 X-8.16 Y-31.46 E0.0247
G1 X-7.6 Y-33.13 E0.0622
G1 X-7.11 Y-34.16 E0.0405
G1 X-6.78 Y-34.56 E0.0182
G1 X-6.57 Y-34.69 E0.0085
G1 X-6.39 Y-34.68 E0.0064
G1 X-6.1 Y-34.43 E0.0136
G1 X-5.68 Y-33.77 E0.0278
G1 X-5.09 Y-32.27 E0.0571
G1 X-4.76 Y-31.74 E0.0219
G1 X-4.22 Y-31.33 E0.0241
G1 X-3.45 Y-31.01 E0.0294
G1 X-2.52 Y-30.88 E0.0331
G1 X0.08 Y-30.92 E0.0921
G1 X2.3 Y-30.87 E0.0787
G1 X3.39 Y-30.99 E0.0386
G1 X4.19 Y-31.32 E0.0308
G1 X4.77 Y-31.75 E0.0254
G1 X5.03 Y-32.14 E0.0165
G1 X5.69 Y-33.8 E0.0635
G1 X6.12 Y-34.46 E0.0277
G1 X6.43 Y-34.7 E0.014
G1 X6.71 Y-34.63 E0.01
G1 X7.1 Y-34.16 E0.0218
G1 X7.58 Y-33.17 E0.0389
G1 X8.13 Y-31.55 E0.0604
G1 X8.34 Y-31.12 E0.0171
G1 X8.75 Y-30.65 E0.022
G1 X9.48 Y-30.13 E0.0316
G1 X10.34 Y-29.8 E0.0326
G1 X12.16 Y-29.31 E0.0668
G1 X14.52 Y-28.49 E0.0883
G1 X16.49 Y-27.46 E0.0783
G1 X17.24 Y-26.94 E0.0325
G1 X17.89 Y-26.39 E0.03
G1 X18.69 Y-25.43 E0.0444
G1 X18.93 Y-24.95 E0.0187
G1 X19.09 Y-24.05 E0.0327
G1 X19.09 Y20.91 E1.5901
G1 X19.15 Y21.16 E0.009
G1 X19.33 Y21.34 E0.0091
G1 X19.59 Y21.44 E0.0099
G1 X19.59 Y22.77 E0.0471
G1 X19.56 Y22.9 E0.0048
G1 X19.21 Y23.12 E0.0147
G1 X19.08 Y23.44 E0.0121
G1 X19.09 Y25.96 E0.0893
G1 X18.95 Y27.61 E0.0586
G1 X18.71 Y28.74 E0.0407
G1 X18.1 Y30.41 E0.0631
G1 X17.56 Y31.47 E0.0419
G1 X16.93 Y32.47 E0.0418
G1 X16.26 Y33.34 E0.0388
G1 X15.68 Y33.98 E0.0304
G1 X14.87 Y34.08 E0.0291
;
; 'Loop Path', 1.3 [feed mm/s], 37.4 [head mm/s]
G1 X14.42 Y33.84 E0 F15000
G1 X13.01 Y35.06 E0.0659 F2241.8
G1 X11.93 Y35.81 E0.0465
G1 X10.63 Y36.57 E0.0535
G1 X8.57 Y37.54 E0.0803
G1 X6.3 Y38.27 E0.0845
G1 X4.71 Y38.64 E0.0575
G1 X2.49 Y38.99 E0.0795
G1 X0.33 Y39.11 E0.0766
G1 X-1.74 Y39.05 E0.0733
G1 X-3.81 Y38.82 E0.0737
G1 X-5.98 Y38.36 E0.0786
G1 X-8.39 Y37.59 E0.0892
G1 X-9.71 Y37.03 E0.0509
G1 X-10.92 Y36.42 E0.0477
G1 X-12.95 Y35.1 E0.0857
G1 X-13.93 Y34.31 E0.0445
G1 X-15.41 Y32.79 E0.0751
G1 X-16.11 Y31.89 E0.0402
G1 X-17.08 Y30.21 E0.0688
G1 X-17.5 Y29.21 E0.0384
G1 X-17.95 Y27.59 E0.0595
G1 X-18.08 Y25.88 E0.0605
G1 X-18.08 Y23.36 E0.0892
G1 X-18.22 Y22.84 E0.019
G1 X-18.59 Y22.31 E0.0229
G1 X-18.59 Y22.05 E0.0093
G1 X-18.19 Y21.49 E0.0244
G1 X-18.08 Y20.57 E0.0328
G1 X-18.08 Y-23.86 E1.5713
G1 X-18 Y-24.56 E0.0247
G1 X-17.58 Y-25.26 E0.0293
G1 X-17.1 Y-25.76 E0.0241
G1 X-16.04 Y-26.57 E0.0474
G1 X-14.82 Y-27.24 E0.0493
G1 X-13.09 Y-27.95 E0.0659
G1 X-11.88 Y-28.35 E0.0451
G1 X-9.53 Y-29 E0.0861
G1 X-8.53 Y-29.54 E0.0404
G1 X-7.82 Y-30.16 E0.0334
G1 X-7.42 Y-30.72 E0.0245
G1 X-7.17 Y-31.24 E0.0203
G1 X-6.64 Y-32.83 E0.0592
G1 X-6.46 Y-33.04 E0.0098
G1 X-6.01 Y-31.87 E0.0445
G1 X-5.63 Y-31.2 E0.0269
G1 X-5.04 Y-30.66 E0.0286
G1 X-4.21 Y-30.22 E0.0331
G1 X-3.42 Y-29.97 E0.0292
G1 X-2.36 Y-29.87 E0.0378
G1 X-0.21 Y-29.91 E0.0758
G1 X2.37 Y-29.87 E0.0916
G1 X3.57 Y-30 E0.0425
G1 X4.56 Y-30.38 E0.0375
G1 X5.22 Y-30.81 E0.0278
G1 X5.64 Y-31.23 E0.0211
G1 X5.96 Y-31.76 E0.022
G1 X6.44 Y-33.01 E0.0473
G1 X6.6 Y-32.94 E0.0061
G1 X7.2 Y-31.16 E0.0664
G1 X7.43 Y-30.68 E0.0189
G1 X7.89 Y-30.09 E0.0263
G1 X8.58 Y-29.51 E0.0321
G1 X9.54 Y-29 E0.0384
G1 X11.87 Y-28.35 E0.0854
G1 X13.1 Y-27.95 E0.046
G1 X15.07 Y-27.1 E0.0759
G1 X15.98 Y-26.59 E0.0367
G1 X17.06 Y-25.81 E0.0472
G1 X17.65 Y-25.19 E0.0302
G1 X18.02 Y-24.53 E0.0267
G1 X18.1 Y-23.97 E0.02
G1 X18.08 Y20.89 E1.5865
G1 X18.13 Y21.3 E0.0147
G1 X18.3 Y21.69 E0.0151
G1 X18.56 Y22.01 E0.0146
G1 X18.59 Y22.29 E0.01
G1 X18.2 Y22.85 E0.0239
G1 X18.08 Y23.35 E0.0184
G1 X18.09 Y26 E0.0936
G1 X17.96 Y27.58 E0.0562
G1 X17.48 Y29.29 E0.0627
G1 X17.12 Y30.15 E0.0333
G1 X16.15 Y31.83 E0.0684
G1 X15.47 Y32.72 E0.0395
G1 X14.97 Y33.28 E0.0266
;
; 'Loop Path', 1.4 [feed mm/s], 40.0 [head mm/s]
G1 X13.71 Y33.13 E0 F15000
G1 X12.39 Y34.27 E0.0615 F2400
G1 X11.44 Y34.93 E0.041
G1 X10.34 Y35.59 E0.0451
G1 X8.2 Y36.61 E0.0841
G1 X6.03 Y37.31 E0.0805
G1 X4.44 Y37.68 E0.0576
G1 X2.38 Y38 E0.0738
G1 X0.24 Y38.1 E0.0759
G1 X-1.64 Y38.06 E0.0663
G1 X-3.64 Y37.83 E0.0712
G1 X-5.73 Y37.39 E0.0758
G1 X-8.13 Y36.62 E0.0891
G1 X-9.36 Y36.09 E0.0474
G1 X-11.07 Y35.15 E0.069
G1 X-12.36 Y34.3 E0.0546
G1 X-13.62 Y33.25 E0.0578
G1 X-14.71 Y32.07 E0.0568
G1 X-15.8 Y30.51 E0.0675
G1 X-16.22 Y29.69 E0.0325
G1 X-16.75 Y28.26 E0.0538
G1 X-16.96 Y27.33 E0.034
G1 X-17.08 Y25.93 E0.0497
G1 X-17.08 Y23.32 E0.0923
G1 X-17.17 Y22.8 E0.0185
G1 X-17.43 Y22.19 E0.0236
G1 X-17.15 Y21.51 E0.0257
G1 X-17.08 Y20.96 E0.0197
G1 X-17.08 Y-24.01 E1.5907
G1 X-16.97 Y-24.39 E0.0138
G1 X-16.46 Y-24.99 E0.0279
G1 X-15.51 Y-25.72 E0.0425
G1 X-14.44 Y-26.3 E0.0428
G1 X-12.7 Y-27.02 E0.0669
G1 X-11.57 Y-27.4 E0.042
G1 X-9.25 Y-28.04 E0.085
G1 X-8.24 Y-28.54 E0.04
G1 X-7.48 Y-29.11 E0.0336
G1 X-6.87 Y-29.74 E0.0311
G1 X-6.4 Y-30.49 E0.0314
G1 X-6.33 Y-30.49 E0.0022
G1 X-5.67 Y-29.89 E0.0318
G1 X-4.88 Y-29.42 E0.0323
G1 X-3.92 Y-29.07 E0.0361
G1 X-2.97 Y-28.9 E0.0344
G1 X0.35 Y-28.92 E0.1173
G1 X2.43 Y-28.87 E0.0735
G1 X3.26 Y-28.93 E0.0295
G1 X4.29 Y-29.18 E0.0376
G1 X5.16 Y-29.57 E0.0338
G1 X5.84 Y-30.02 E0.0289
G1 X6.37 Y-30.55 E0.0263
G1 X6.77 Y-29.86 E0.0282
G1 X7.44 Y-29.13 E0.0349
G1 X8.28 Y-28.51 E0.0368
G1 X9.27 Y-28.03 E0.039
G1 X11.66 Y-27.37 E0.0877
G1 X13.73 Y-26.62 E0.0778
G1 X14.69 Y-26.17 E0.0375
G1 X15.99 Y-25.4 E0.0535
G1 X16.74 Y-24.72 E0.0359
G1 X17.05 Y-24.24 E0.02
G1 X17.1 Y-23.65 E0.0211
G1 X17.08 Y20.82 E1.5729
G1 X17.11 Y21.29 E0.0164
G1 X17.21 Y21.7 E0.015
G1 X17.42 Y22.19 E0.019
G1 X17.16 Y22.81 E0.0236
G1 X17.08 Y23.45 E0.0229
G1 X17.09 Y26.14 E0.095
G1 X16.97 Y27.43 E0.0458
G1 X16.56 Y28.9 E0.0541
G1 X16.19 Y29.77 E0.0333
G1 X15.31 Y31.3 E0.0624
G1 X14.25 Y32.57 E0.0586
;
; 'Destring/Wipe/Jump Path', 0.0 [feed mm/s], 74.8 [head mm/s]
G1 X14.25 Y32.57 E0 F15000
G1 E-1.25 F900
G1 X14.25 Y32.57 E0 F4486.5
G1 X13.71 Y33.13 E0
G1 X12.39 Y34.27 E0
G1 X11.44 Y34.93 E0
G1 X10.34 Y35.59 E0
G1 X9.6 Y35.94 E0
;
; Post-layer lift
G1 X9.6 Y35.94 Z4.75 E0 F210
; END_LAYER_OBJECT z=4.50
; BEGIN_LAYER_OBJECT z=4.75
;
; 'Perimeter Path', 0.5 [feed mm/s], 14.9 [head mm/s]
G1 X-27.01 Y-30.87 Z4.75 E0 F15000
G1 E1.25 F900
G1 X-26.99 Y-30.92 E0.002 F897
G1 X-26.77 Y-31.58 E0.0244
G1 X-26.68 Y-31.72 E0.0059
G1 X-26.48 Y-31.74 E0.007
G1 X-26.36 Y-31.64 E0.0056
G1 X-26.34 Y-31.36 E0.0101
G1 X-26.55 Y-31.01 E0.0142
G1 X-26.62 Y-30.93 E0.0038
;
; 'Destring/Wipe/Jump Path', 0.0 [feed mm/s], 74.8 [head mm/s]
G1 X-26.62 Y-30.93 E0 F15000
G1 E-1.25 F900
G1 X-26.62 Y-30.93 E0 F4486.5
G1 X-27.01 Y-30.87 E0
G1 X-26.99 Y-30.92 E0
G1 X-26.77 Y-31.58 E0
G1 X-26.68 Y-31.72 E0
G1 X-26.48 Y-31.74 E0
G1 X-26.36 Y-31.64 E0
G1 X-26.34 Y-31.36 E0
G1 X-26.55 Y-31.01 E0
G1 X-26.62 Y-30.93 E0
;
; 'Perimeter Path', 0.5 [feed mm/s], 14.9 [head mm/s]
G1 X-5.81 Y-39.09 E0 F15000
G1 E1.25 F900
G1 X-5.94 Y-38.26 E0.03 F897
G1 X-6.64 Y-37.9 E0.0277
G1 X-7.43 Y-37.73 E0.0283
G1 X-8.21 Y-37.75 E0.0278
G1 X-8.72 Y-37.84 E0.0184
G1 X-9.67 Y-38.25 E0.0365
G1 X-10.19 Y-38.69 E0.0241
G1 X-10.57 Y-39.14 E0.021
G1 X-10.83 Y-39.64 E0.0198
G1 X-10.98 Y-40.23 E0.0216
G1 X-10.89 Y-40.33 E0.0047
G1 X-7.23 Y-40.22 E0.1296
G1 X-4.82 Y-40.21 E0.0853
G1 X-4.74 Y-40.07 E0.0055
G1 X-4.93 Y-39.43 E0.0235
G1 X-5.14 Y-39.05 E0.0153
G1 X-5.35 Y-38.77 E0.0125
G1 X-6.19 Y-38.78 E0.0295
;
; 'Loop Path', 1.3 [feed mm/s], 37.4 [head mm/s]
G1 X-6.91 Y-38.88 E0 F15000
G1 X-7.5 Y-38.73 E0.0215 F2241.8
G1 X-8.19 Y-38.75 E0.0245
G1 X-8.82 Y-38.94 E0.0231
G1 X-9.19 Y-39.15 E0.0151
G1 X-9.29 Y-39.27 E0.0056
G1 X-6.71 Y-39.21 E0.0914
;
; 'Destring/Wipe/Jump Path', 0.0 [feed mm/s], 74.8 [head mm/s]
G1 X-6.71 Y-39.21 E0 F15000
G1 E-1.25 F900
G1 X-6.71 Y-39.21 E0 F4486.5
G1 X-6.91 Y-38.88 E0
G1 X-7.5 Y-38.73 E0
G1 X-8.19 Y-38.75 E0
G1 X-8.82 Y-38.94 E0
G1 X-9.19 Y-39.15 E0
G1 X-9.29 Y-39.27 E0
G1 X-6.83 Y-39.22 E0
;
; 'Perimeter Path', 0.5 [feed mm/s], 14.9 [head mm/s]
G1 X9.9 Y-39.18 E0 F15000
G1 E1.25 F900
G1 X9.81 Y-38.37 E0.029 F897
G1 X9.23 Y-38.02 E0.024
G1 X8.4 Y-37.77 E0.0305
G1 X7.59 Y-37.72 E0.0286
G1 X6.99 Y-37.81 E0.0216
G1 X6.34 Y-38.03 E0.0242
G1 X5.68 Y-38.44 E0.0275
G1 X5.11 Y-39.07 E0.0301
G1 X4.79 Y-39.79 E0.0279
G1 X4.75 Y-40.21 E0.0148
G1 X6.88 Y-40.22 E0.0756
G1 X10.91 Y-40.33 E0.1425
G1 X10.99 Y-40.2 E0.0051
G1 X10.79 Y-39.53 E0.0249
G1 X10.38 Y-38.9 E0.0265
G1 X9.55 Y-38.83 E0.0296
;
; 'Loop Path', 1.3 [feed mm/s], 37.4 [head mm/s]
G1 X8.74 Y-38.92 E0 F15000
G1 X8.13 Y-38.74 E0.0225 F2241.8
G1 X7.44 Y-38.74 E0.0242
G1 X6.97 Y-38.86 E0.0173
G1 X6.52 Y-39.07 E0.0176
G1 X6.48 Y-39.21 E0.0051
G1 X8.99 Y-39.27 E0.0891
;
; 'Crown Path', 0.7 [feed mm/s], 37.2 [head mm/s]
G1 X8.25 Y-39.01 E0 F15000
G1 X9.11 Y-39.2 E0.0155 F2231.8
G1 X9.77 Y-39.47 E0.0126
G1 X10.32 Y-39.8 E0.0115
;
; 'Destring/Wipe/Jump Path', 0.0 [feed mm/s], 74.8 [head mm/s]
G1 X10.32 Y-39.8 E0 F15000
G1 E-1.25 F900
G1 X10.32 Y-39.8 E0 F4486.5
G1 X9.77 Y-39.47 E0
G1 X9.11 Y-39.2 E0
G1 X8.25 Y-39.01 E0
;
; 'Perimeter Path', 0.5 [feed mm/s], 14.9 [head mm/s]
G1 X26.66 Y-30.88 E0 F15000
G1 E1.25 F900
G1 X26.58 Y-30.96 E0.0039 F897
G1 X26.36 Y-31.28 E0.0138
G1 X26.33 Y-31.59 E0.0112
G1 X26.45 Y-31.73 E0.0062
G1 X26.63 Y-31.74 E0.0065
G1 X26.74 Y-31.64 E0.0051
G1 X26.81 Y-31.35 E0.0107
G1 X26.97 Y-30.98 E0.0142
G1 X26.98 Y-30.96 E0.0007
;
; 'Destring/Wipe/Jump Path', 0.0 [feed mm/s], 74.8 [head mm/s]
G1 X26.98 Y-30.96 E0 F15000
G1 E-1.25 F900
G1 X26.98 Y-30.96 E0 F4486.5
G1 X26.66 Y-30.88 E0
G1 X26.58 Y-30.96 E0
G1 X26.36 Y-31.28 E0
G1 X26.33 Y-31.59 E0
G1 X26.45 Y-31.73 E0
G1 X26.63 Y-31.74 E0
G1 X26.74 Y-31.64 E0
G1 X26.81 Y-31.35 E0
G1 X26.97 Y-30.98 E0
G1 X26.98 Y-30.96 E0
;
; 'Perimeter Path', 0.5 [feed mm/s], 14.9 [head mm/s]
G1 X15.19 Y33.69 E0 F15000
G1 E1.25 F900
G1 X15.11 Y34.51 E0.029 F897
G1 X13.6 Y35.81 E0.0704
G1 X12.44 Y36.62 E0.05
G1 X11.23 Y37.34 E0.0498
G1 X8.81 Y38.46 E0.0945
G1 X7.36 Y38.96 E0.0542
G1 X4.95 Y39.58 E0.0878
G1 X3.03 Y39.9 E0.069
G1 X0.8 Y40.07 E0.0789
G1 X-1.49 Y40.02 E0.0811
G1 X-3.56 Y39.82 E0.0738
G1 X-6.06 Y39.33 E0.09
G1 X-7.61 Y38.89 E0.057
G1 X-9.47 Y38.2 E0.0702
G1 X-11.27 Y37.32 E0.0708
G1 X-12.49 Y36.59 E0.0501
G1 X-14.4 Y35.15 E0.0848
G1 X-15.41 Y34.22 E0.0484
G1 X-16.25 Y33.29 E0.0445
G1 X-16.86 Y32.49 E0.0356
G1 X-17.49 Y31.51 E0.0409
G1 X-18.28 Y29.83 E0.066
G1 X-18.7 Y28.58 E0.0466
G1 X-18.97 Y27.14 E0.0516
G1 X-19.03 Y25.96 E0.0417
G1 X-19.03 Y23.46 E0.0886
G1 X-19.17 Y23.08 E0.0143
G1 X-19.55 Y22.9 E0.0148
G1 X-19.55 Y21.46 E0.051
G1 X-19.28 Y21.36 E0.0101
G1 X-19.09 Y21.16 E0.0097
G1 X-19.03 Y20.72 E0.0158
G1 X-19.03 Y-24.02 E1.5824
G1 X-18.98 Y-24.6 E0.0205
G1 X-18.6 Y-25.48 E0.0336
G1 X-18.23 Y-25.97 E0.0219
G1 X-17.7 Y-26.52 E0.027
G1 X-16.37 Y-27.49 E0.0582
G1 X-15.39 Y-28.03 E0.0397
G1 X-13.34 Y-28.89 E0.0786
G1 X-12.14 Y-29.29 E0.0447
G1 X-9.77 Y-29.94 E0.087
G1 X-8.81 Y-30.37 E0.0371
G1 X-8.07 Y-30.93 E0.0329
G1 X-7.62 Y-31.5 E0.0256
G1 X-7.15 Y-32.5 E0.0392
G1 X-6.8 Y-32.99 E0.0212
G1 X-6.59 Y-33.13 E0.009
G1 X-6.41 Y-33.14 E0.0063
G1 X-6.08 Y-32.85 E0.0155
G1 X-5.6 Y-32.03 E0.0338
G1 X-5.3 Y-31.69 E0.016
G1 X-4.98 Y-31.45 E0.0141
G1 X-4.39 Y-31.17 E0.0229
G1 X-3.69 Y-30.94 E0.0263
G1 X-2.63 Y-30.84 E0.0374
G1 X-0.13 Y-30.91 E0.0884
G1 X3.03 Y-30.84 E0.1121
G1 X4.08 Y-31.05 E0.0376
G1 X4.91 Y-31.41 E0.0322
G1 X5.34 Y-31.73 E0.0188
G1 X5.63 Y-32.08 E0.0161
G1 X6.05 Y-32.82 E0.0303
G1 X6.41 Y-33.15 E0.0173
G1 X6.62 Y-33.12 E0.0073
G1 X6.79 Y-32.98 E0.0078
G1 X7.14 Y-32.52 E0.0205
G1 X7.57 Y-31.59 E0.0363
G1 X8.08 Y-30.92 E0.0297
G1 X8.85 Y-30.35 E0.034
G1 X9.79 Y-29.93 E0.0365
G1 X12.15 Y-29.29 E0.0862
G1 X14.48 Y-28.45 E0.0876
G1 X15.56 Y-27.95 E0.0422
G1 X17.09 Y-27.01 E0.0636
G1 X17.77 Y-26.45 E0.0311
G1 X18.57 Y-25.54 E0.0429
G1 X18.88 Y-24.9 E0.025
G1 X19.04 Y-23.99 E0.0327
G1 X19.04 Y20.83 E1.5852
G1 X19.12 Y21.18 E0.0129
G1 X19.29 Y21.35 E0.0084
G1 X19.54 Y21.48 E0.0102
G1 X19.54 Y22.89 E0.0499
G1 X19.27 Y22.98 E0.01
G1 X19.1 Y23.17 E0.009
G1 X19.04 Y23.39 E0.0082
G1 X19.01 Y26.58 E0.1129
G1 X18.89 Y27.69 E0.0393
G1 X18.51 Y29.22 E0.056
G1 X17.97 Y30.58 E0.0517
G1 X17.47 Y31.52 E0.0377
G1 X16.84 Y32.51 E0.0414
G1 X15.65 Y33.95 E0.0659
G1 X14.84 Y34.05 E0.029
;
; 'Loop Path', 1.3 [feed mm/s], 37.4 [head mm/s]
G1 X14.39 Y33.81 E0 F15000
G1 X12.98 Y35.02 E0.066 F2241.8
G1 X11.87 Y35.8 E0.0476
G1 X10.83 Y36.42 E0.043
G1 X8.41 Y37.54 E0.0944
G1 X6.82 Y38.08 E0.0594
G1 X4.74 Y38.61 E0.076
G1 X2.71 Y38.93 E0.0724
G1 X0.68 Y39.06 E0.0721
G1 X-1.55 Y39.02 E0.0787
G1 X-3.49 Y38.83 E0.0692
G1 X-5.81 Y38.36 E0.0836
G1 X-8.36 Y37.56 E0.0944
G1 X-9.6 Y37.04 E0.0475
G1 X-11.26 Y36.18 E0.0664
G1 X-12.92 Y35.07 E0.0705
G1 X-13.8 Y34.36 E0.0399
G1 X-15.3 Y32.86 E0.0752
G1 X-16.07 Y31.86 E0.0446
G1 X-17.05 Y30.18 E0.0688
G1 X-17.42 Y29.3 E0.0336
G1 X-17.9 Y27.6 E0.0624
G1 X-18.03 Y25.92 E0.0595
G1 X-18.03 Y23.29 E0.0933
G1 X-18.18 Y22.77 E0.0189
G1 X-18.55 Y22.27 E0.0221
G1 X-18.55 Y22.09 E0.0063
G1 X-18.16 Y21.54 E0.0238
G1 X-18.03 Y20.82 E0.0258
G1 X-18.03 Y-24.09 E1.5884
G1 X-17.92 Y-24.64 E0.0199
G1 X-17.53 Y-25.25 E0.0254
G1 X-17.08 Y-25.73 E0.0236
G1 X-15.84 Y-26.67 E0.0548
G1 X-14.09 Y-27.53 E0.069
G1 X-11.87 Y-28.33 E0.0834
G1 X-9.5 Y-28.97 E0.087
G1 X-8.31 Y-29.5 E0.0459
G1 X-7.48 Y-30.11 E0.0365
G1 X-6.96 Y-30.67 E0.0271
G1 X-6.5 Y-31.46 E0.0323
G1 X-6.43 Y-31.45 E0.0025
G1 X-5.91 Y-30.88 E0.0274
G1 X-5.24 Y-30.44 E0.0283
G1 X-4.25 Y-30.06 E0.0375
G1 X-3.25 Y-29.86 E0.0359
G1 X-2.53 Y-29.84 E0.0254
G1 X-0.11 Y-29.91 E0.0857
G1 X3.05 Y-29.84 E0.1119
G1 X4.06 Y-30.01 E0.0364
G1 X5 Y-30.33 E0.0351
G1 X5.73 Y-30.76 E0.0298
G1 X6.05 Y-31.02 E0.0147
G1 X6.39 Y-31.41 E0.0182
G1 X6.52 Y-31.43 E0.0046
G1 X6.98 Y-30.65 E0.0321
G1 X7.52 Y-30.08 E0.0275
G1 X8.35 Y-29.48 E0.0365
G1 X9.29 Y-29.03 E0.0369
G1 X11.83 Y-28.34 E0.0929
G1 X14.12 Y-27.53 E0.086
G1 X15.85 Y-26.64 E0.0688
G1 X16.58 Y-26.14 E0.0315
G1 X17.5 Y-25.29 E0.0442
G1 X17.81 Y-24.84 E0.0193
G1 X18 Y-24.36 E0.0182
G1 X18.04 Y-23.86 E0.0178
G1 X18.03 Y20.75 E1.5777
G1 X18.11 Y21.33 E0.0207
G1 X18.27 Y21.7 E0.0144
G1 X18.52 Y22.02 E0.0144
G1 X18.55 Y22.26 E0.0084
G1 X18.2 Y22.7 E0.0199
G1 X18.03 Y23.34 E0.0234
G1 X18.04 Y25.82 E0.0878
G1 X17.99 Y26.8 E0.0348
G1 X17.72 Y28.33 E0.0548
G1 X17.39 Y29.37 E0.0385
G1 X16.65 Y30.93 E0.0609
G1 X16.06 Y31.87 E0.0396
G1 X15.42 Y32.71 E0.0374
G1 X14.94 Y33.25 E0.0253
;
; 'Loop Path', 1.4 [feed mm/s], 40.0 [head mm/s]
G1 X13.68 Y33.11 E0 F15000
G1 X12.36 Y34.25 E0.0615 F2400
G1 X10.86 Y35.25 E0.064
G1 X9.28 Y36.09 E0.0632
G1 X7.87 Y36.67 E0.0538
G1 X5.72 Y37.35 E0.08
G1 X3.8 Y37.77 E0.0696
G1 X1.73 Y38.01 E0.0735
G1 X-0.31 Y38.08 E0.0722
G1 X-2.47 Y37.95 E0.0765
G1 X-4.41 Y37.65 E0.0695
G1 X-6.66 Y37.08 E0.0821
G1 X-8.06 Y36.6 E0.0523
G1 X-9.81 Y35.83 E0.0678
G1 X-11.38 Y34.93 E0.0638
G1 X-12.31 Y34.27 E0.0403
G1 X-13.92 Y32.88 E0.0753
G1 X-14.68 Y32.04 E0.0399
G1 X-15.7 Y30.59 E0.0629
G1 X-16.18 Y29.65 E0.0372
G1 X-16.73 Y28.21 E0.0548
G1 X-16.99 Y26.72 E0.0531
G1 X-17.03 Y25.83 E0.0317
G1 X-17.03 Y23.38 E0.0865
G1 X-17.12 Y22.76 E0.0224
G1 X-17.35 Y22.2 E0.0214
G1 X-17.08 Y21.43 E0.0288
G1 X-17.03 Y20.77 E0.0233
G1 X-17.03 Y-23.93 E1.5811
G1 X-16.93 Y-24.37 E0.0158
G1 X-16.47 Y-24.93 E0.0258
G1 X-15.87 Y-25.42 E0.0274
G1 X-14.54 Y-26.23 E0.0551
G1 X-12.67 Y-27.01 E0.0716
G1 X-11.45 Y-27.41 E0.0457
G1 X-9.11 Y-28.04 E0.0855
G1 X-8.2 Y-28.42 E0.0349
G1 X-7.22 Y-29.03 E0.0409
G1 X-6.3 Y-29.88 E0.0442
G1 X-6.26 Y-29.88 E0.0015
G1 X-5.24 Y-29.34 E0.0407
G1 X-4.06 Y-28.97 E0.0436
G1 X-2.67 Y-28.84 E0.0494
G1 X-0.15 Y-28.9 E0.0893
G1 X2.58 Y-28.84 E0.0967
G1 X3.53 Y-28.88 E0.0335
G1 X4.74 Y-29.17 E0.0439
G1 X5.43 Y-29.43 E0.026
G1 X6.29 Y-29.91 E0.0349
G1 X6.9 Y-29.29 E0.0309
G1 X7.83 Y-28.62 E0.0405
G1 X8.94 Y-28.09 E0.0434
G1 X11.49 Y-27.4 E0.0936
G1 X12.7 Y-27 E0.0449
G1 X14.55 Y-26.21 E0.0713
G1 X15.35 Y-25.77 E0.0321
G1 X16.35 Y-25.05 E0.0438
G1 X16.89 Y-24.45 E0.0284
G1 X17.04 Y-23.92 E0.0195
G1 X17.03 Y20.82 E1.5823
G1 X17.11 Y21.49 E0.0238
G1 X17.35 Y22.13 E0.0243
G1 X17.08 Y22.91 E0.0291
G1 X17.03 Y23.4 E0.0177
G1 X17.03 Y26.51 E0.1098
G1 X16.84 Y27.77 E0.045
G1 X16.47 Y29 E0.0455
G1 X15.91 Y30.22 E0.0474
G1 X15.26 Y31.27 E0.0437
G1 X14.64 Y32.08 E0.0361
G1 X14.22 Y32.54 E0.022
;
; 'Destring/Wipe/Jump Path', 0.0 [feed mm/s], 74.8 [head mm/s]
G1 X14.22 Y32.54 E0 F15000
G1 E-1.25 F900
G1 X14.22 Y32.54 E0 F4486.5
G1 X13.68 Y33.11 E0
G1 X12.36 Y34.25 E0
G1 X10.86 Y35.25 E0
G1 X9.58 Y35.93 E0
;
; Post-layer lift
G1 X9.58 Y35.93 Z5 E0 F210
; END_LAYER_OBJECT z=4.75
; BEGIN_LAYER_OBJECT z=5.00
;
; 'Perimeter Path', 0.5 [feed mm/s], 14.9 [head mm/s]
G1 X-5.9 Y-39.15 Z5 E0 F15000
G1 E1.25 F900
G1 X-6.01 Y-38.32 E0.0297 F897
G1 X-6.7 Y-37.96 E0.0274
G1 X-7.45 Y-37.77 E0.0275
G1 X-8.27 Y-37.79 E0.0289
G1 X-8.84 Y-37.9 E0.0206
G1 X-9.79 Y-38.33 E0.037
G1 X-10.47 Y-38.94 E0.0322
G1 X-10.87 Y-39.61 E0.0276
G1 X-11.04 Y-40.29 E0.0248
G1 X-10.92 Y-40.34 E0.0047
G1 X-4.95 Y-40.19 E0.2112
G1 X-4.86 Y-40.14 E0.0037
G1 X-5.06 Y-39.43 E0.0264
G1 X-5.43 Y-38.85 E0.0243
G1 X-6.27 Y-38.82 E0.0297
;
; 'Loop Path', 1.3 [feed mm/s], 37.4 [head mm/s]
G1 X-7.09 Y-38.89 E0 F15000
G1 X-7.71 Y-38.76 E0.0222 F2241.8
G1 X-8.45 Y-38.83 E0.0266
G1 X-8.84 Y-38.97 E0.0146
G1 X-9.2 Y-39.16 E0.0143
G1 X-9.32 Y-39.3 E0.0064
G1 X-6.83 Y-39.23 E0.088
;
; 'Destring/Wipe/Jump Path', 0.0 [feed mm/s], 74.8 [head mm/s]
G1 X-6.83 Y-39.23 E0 F15000
G1 E-1.25 F900
G1 X-6.83 Y-39.23 E0 F4486.5
G1 X-7.09 Y-38.89 E0
G1 X-7.71 Y-38.76 E0
G1 X-8.45 Y-38.83 E0
G1 X-8.84 Y-38.97 E0
G1 X-9.2 Y-39.16 E0
G1 X-9.32 Y-39.3 E0
G1 X-6.83 Y-39.23 E0
;
; 'Perimeter Path', 0.5 [feed mm/s], 14.9 [head mm/s]
G1 X9.95 Y-39.2 E0 F15000
G1 E1.25 F900
G1 X9.81 Y-38.36 E0.0299 F897
G1 X9.22 Y-38.03 E0.0238
G1 X8.42 Y-37.8 E0.0298
G1 X7.56 Y-37.76 E0.0302
G1 X6.78 Y-37.93 E0.0283
G1 X6.05 Y-38.27 E0.0284
G1 X5.49 Y-38.76 E0.0266
G1 X5.08 Y-39.37 E0.0258
G1 X4.89 Y-39.96 E0.0218
G1 X4.91 Y-40.19 E0.0083
G1 X10.93 Y-40.34 E0.2131
G1 X11.03 Y-40.26 E0.0045
G1 X10.88 Y-39.65 E0.0225
G1 X10.62 Y-39.16 E0.0196
G1 X10.4 Y-38.89 E0.0124
G1 X9.57 Y-38.88 E0.0293
;
; 'Loop Path', 1.3 [feed mm/s], 37.4 [head mm/s]
G1 X8.85 Y-38.97 E0 F15000
G1 X8.15 Y-38.78 E0.0257 F2241.8
G1 X7.48 Y-38.78 E0.0239
G1 X6.93 Y-38.95 E0.0201
G1 X6.69 Y-39.08 E0.0099
G1 X6.63 Y-39.22 E0.0055
G1 X8.92 Y-39.29 E0.0813
;
; 'Destring/Wipe/Jump Path', 0.0 [feed mm/s], 74.8 [head mm/s]
G1 X8.92 Y-39.29 E0 F15000
G1 E-1.25 F900
G1 X8.92 Y-39.29 E0 F4486.5
G1 X8.85 Y-38.97 E0
G1 X8.15 Y-38.78 E0
G1 X7.48 Y-38.78 E0
G1 X6.93 Y-38.95 E0
G1 X6.69 Y-39.08 E0
G1 X6.63 Y-39.22 E0
G1 X8.92 Y-39.29 E0
;
; 'Perimeter Path', 0.5 [feed mm/s], 14.9 [head mm/s]
G1 X15.07 Y33.75 E0 F15000
G1 E1.25 F900
G1 X14.98 Y34.56 E0.0289 F897
G1 X13.47 Y35.85 E0.0704
G1 X12.31 Y36.65 E0.0495
G1 X10.26 Y37.78 E0.0831
G1 X8.62 Y38.49 E0.063
G1 X6.64 Y39.14 E0.0736
G1 X4.54 Y39.63 E0.0764
G1 X2.42 Y39.92 E0.0756
G1 X0.11 Y40.04 E0.0819
G1 X-2.1 Y39.94 E0.0784
G1 X-4.44 Y39.63 E0.0833
G1 X-6.17 Y39.26 E0.0626
G1 X-8.58 Y38.5 E0.0894
G1 X-9.93 Y37.94 E0.0517
G1 X-11.24 Y37.28 E0.0518
G1 X-12.36 Y36.64 E0.0456
G1 X-14.37 Y35.12 E0.0892
G1 X-15.34 Y34.22 E0.0468
G1 X-16.14 Y33.34 E0.0419
G1 X-16.83 Y32.45 E0.04
G1 X-17.9 Y30.61 E0.0753
G1 X-18.31 Y29.65 E0.037
G1 X-18.63 Y28.58 E0.0394
G1 X-18.96 Y26.78 E0.0647
G1 X-18.98 Y23.58 E0.113
G1 X-19.01 Y23.25 E0.0118
G1 X-19.15 Y23.02 E0.0097
G1 X-19.5 Y22.86 E0.0135
G1 X-19.5 Y21.49 E0.0483
G1 X-19.15 Y21.27 E0.0147
G1 X-18.98 Y20.77 E0.0185
G1 X-18.98 Y-23.93 E1.5811
G1 X-18.93 Y-24.6 E0.0236
G1 X-18.6 Y-25.4 E0.0306
G1 X-18.2 Y-25.95 E0.0244
G1 X-17.09 Y-26.98 E0.0531
G1 X-15.99 Y-27.69 E0.0465
G1 X-14.47 Y-28.42 E0.0598
G1 X-12.12 Y-29.27 E0.0882
G1 X-9.87 Y-29.86 E0.0823
G1 X-8.94 Y-30.18 E0.0347
G1 X-8.29 Y-30.48 E0.0253
G1 X-6.78 Y-31.43 E0.0632
G1 X-6.52 Y-31.54 E0.0098
G1 X-6.34 Y-31.54 E0.0064
G1 X-4.54 Y-30.99 E0.0667
G1 X-3.36 Y-30.8 E0.0424
G1 X0.02 Y-30.89 E0.1195
G1 X3.25 Y-30.8 E0.1142
G1 X4.18 Y-30.92 E0.0333
G1 X5 Y-31.13 E0.0299
G1 X6.31 Y-31.54 E0.0485
G1 X6.7 Y-31.49 E0.0139
G1 X8.25 Y-30.51 E0.0647
G1 X9.25 Y-30.04 E0.039
G1 X12 Y-29.31 E0.101
G1 X14.38 Y-28.46 E0.0891
G1 X15.4 Y-27.99 E0.0399
G1 X16.33 Y-27.49 E0.0374
G1 X17.65 Y-26.51 E0.058
G1 X18.18 Y-25.97 E0.0269
G1 X18.55 Y-25.47 E0.022
G1 X18.92 Y-24.62 E0.0326
G1 X18.98 Y-23.94 E0.0243
G1 X18.98 Y20.82 E1.5831
G1 X19.04 Y21.07 E0.0088
G1 X19.22 Y21.3 E0.0105
G1 X19.44 Y21.43 E0.0089
G1 X19.5 Y21.53 E0.0043
G1 X19.5 Y22.85 E0.0466
G1 X19.16 Y23.04 E0.0138
G1 X19.03 Y23.27 E0.0092
G1 X18.98 Y23.57 E0.0109
G1 X18.95 Y26.69 E0.1104
G1 X18.81 Y27.79 E0.0389
G1 X18.32 Y29.58 E0.0659
G1 X17.91 Y30.57 E0.0377
G1 X17.35 Y31.61 E0.0419
G1 X16.8 Y32.47 E0.0362
G1 X15.53 Y34.01 E0.0704
G1 X14.72 Y34.1 E0.0291
;
; 'Loop Path', 1.3 [feed mm/s], 37.4 [head mm/s]
G1 X14.26 Y33.86 E0 F15000
G1 X12.84 Y35.07 E0.0659 F2241.8
G1 X11.8 Y35.79 E0.045
G1 X9.9 Y36.86 E0.0771
G1 X8.25 Y37.56 E0.0634
G1 X5.95 Y38.28 E0.0852
G1 X4.35 Y38.63 E0.058
G1 X2.18 Y38.94 E0.0774
G1 X-0.1 Y39.04 E0.0808
G1 X-2.45 Y38.91 E0.0833
G1 X-4.48 Y38.61 E0.0725
G1 X-6.88 Y38.02 E0.0874
G1 X-8.29 Y37.54 E0.0525
G1 X-9.57 Y37.01 E0.0491
G1 X-11.74 Y35.83 E0.0873
G1 X-12.87 Y35.05 E0.0485
G1 X-13.95 Y34.15 E0.0497
G1 X-15.35 Y32.72 E0.0708
G1 X-16.11 Y31.72 E0.0446
G1 X-17.01 Y30.14 E0.0643
G1 X-17.38 Y29.26 E0.0336
G1 X-17.84 Y27.6 E0.0609
G1 X-17.97 Y25.98 E0.0578
G1 X-17.98 Y23.51 E0.0871
G1 X-18.06 Y22.94 E0.0206
G1 X-18.21 Y22.63 E0.012
G1 X-18.51 Y22.22 E0.0181
G1 X-18.48 Y22.01 E0.0073
G1 X-18.16 Y21.55 E0.0198
G1 X-17.98 Y20.87 E0.0249
G1 X-17.98 Y-23.97 E1.586
G1 X-17.89 Y-24.58 E0.0216
G1 X-17.5 Y-25.23 E0.0268
G1 X-16.96 Y-25.79 E0.0276
G1 X-15.82 Y-26.64 E0.0503
G1 X-14.07 Y-27.5 E0.0691
G1 X-12.9 Y-27.96 E0.0444
G1 X-11.72 Y-28.35 E0.0439
G1 X-9.15 Y-29.03 E0.0939
G1 X-7.93 Y-29.53 E0.0469
G1 X-6.37 Y-30.49 E0.0648
G1 X-4.82 Y-30.04 E0.0569
G1 X-4.21 Y-29.91 E0.0221
G1 X-2.86 Y-29.8 E0.0481
G1 X0.1 Y-29.88 E0.1047
G1 X3.25 Y-29.8 E0.1114
G1 X4.3 Y-29.92 E0.0373
G1 X5.28 Y-30.16 E0.0355
G1 X6.32 Y-30.49 E0.0387
G1 X6.42 Y-30.46 E0.0036
G1 X7.98 Y-29.5 E0.0651
G1 X9.04 Y-29.05 E0.0405
G1 X11.74 Y-28.34 E0.0987
G1 X13.95 Y-27.56 E0.0829
G1 X15.03 Y-27.06 E0.0423
G1 X16.46 Y-26.19 E0.0591
G1 X17.04 Y-25.71 E0.0266
G1 X17.7 Y-24.96 E0.0353
G1 X17.95 Y-24.35 E0.0233
G1 X17.98 Y-23.86 E0.0173
G1 X17.98 Y20.85 E1.5816
G1 X18.06 Y21.33 E0.0169
